{
  "compressionlevel": -1,
  "height": 12,
  "width": 16,
  "infinite": false,
  "orientation": "orthogonal",
  "renderorder": "right-down",
  "tileheight": 32,
  "tilewidth": 32,
  "type": "map",
  "version": "1.10",
  "tiledversion": "1.12.2",
  "nextlayerid": 13,
  "nextobjectid": 21,
  "properties": [
    {
      "name": "prototypeOnly",
      "type": "bool",
      "value": true
    },
    {
      "name": "authoringModel",
      "type": "string",
      "value": "room-shell"
    },
    {
      "name": "sourceMap",
      "type": "string",
      "value": "floor_1_blockout.tmj"
    },
    {
      "name": "sourceMapSha256",
      "type": "string",
      "value": "fd91a1b55ad531c29a89c0a9831b72421a4218341800f89004750914f6964f90"
    }
  ],
  "tilesets": [
    {
      "firstgid": 1,
      "source": "floor1_visual_shell_v1.tsj"
    }
  ],
  "layers": [
    {
      "id": 1,
      "name": "Ground",
      "type": "tilelayer",
      "x": 0,
      "y": 0,
      "width": 16,
      "height": 12,
      "opacity": 1,
      "visible": true,
      "data": [
        0,
        0,
        0,
        0,
        0,
        0,
        0,
        0,
        0,
        0,
        0,
        0,
        0,
        0,
        0,
        0,
        0,
        0,
        0,
        0,
        0,
        0,
        0,
        0,
        0,
        0,
        0,
        0,
        0,
        0,
        0,
        0,
        0,
        0,
        0,
        0,
        0,
        0,
        0,
        1,
        1,
        1,
        1,
        1,
        1,
        0,
        0,
        0,
        0,
        0,
        0,
        0,
        0,
        0,
        0,
        1,
        1,
        1,
        1,
        1,
        1,
        0,
        0,
        0,
        0,
        0,
        0,
        0,
        0,
        0,
        0,
        1,
        1,
        0,
        0,
        0,
        0,
        0,
        0,
        0,
        0,
        0,
        0,
        1,
        1,
        1,
        1,
        1,
        1,
        1,
        1,
        1,
        1,
        0,
        0,
        0,
        0,
        0,
        0,
        1,
        1,
        1,
        1,
        1,
        1,
        1,
        1,
        1,
        1,
        0,
        0,
        0,
        0,
        0,
        0,
        1,
        1,
        1,
        1,
        1,
        1,
        1,
        1,
        1,
        1,
        0,
        0,
        0,
        0,
        0,
        0,
        1,
        1,
        1,
        1,
        1,
        1,
        1,
        1,
        1,
        1,
        0,
        0,
        0,
        0,
        0,
        0,
        1,
        1,
        1,
        1,
        1,
        1,
        1,
        1,
        1,
        1,
        0,
        0,
        0,
        0,
        0,
        0,
        0,
        0,
        0,
        0,
        0,
        0,
        0,
        0,
        0,
        0,
        0,
        0,
        0,
        0,
        0,
        0,
        0,
        0,
        0,
        0,
        0,
        0,
        0,
        0,
        0,
        0,
        0,
        0,
        0
      ]
    },
    {
      "id": 2,
      "name": "FloorDetail",
      "type": "tilelayer",
      "x": 0,
      "y": 0,
      "width": 16,
      "height": 12,
      "opacity": 1,
      "visible": true,
      "data": [
        0,
        0,
        0,
        0,
        0,
        0,
        0,
        0,
        0,
        0,
        0,
        0,
        0,
        0,
        0,
        0,
        0,
        0,
        0,
        0,
        0,
        0,
        0,
        0,
        0,
        0,
        0,
        0,
        0,
        0,
        0,
        0,
        0,
        0,
        0,
        0,
        0,
        0,
        0,
        0,
        0,
        0,
        0,
        0,
        0,
        0,
        0,
        0,
        0,
        0,
        0,
        0,
        0,
        0,
        0,
        0,
        0,
        0,
        0,
        0,
        0,
        0,
        0,
        0,
        0,
        0,
        0,
        0,
        0,
        0,
        0,
        0,
        0,
        0,
        0,
        0,
        0,
        0,
        0,
        0,
        0,
        0,
        0,
        0,
        0,
        0,
        0,
        0,
        0,
        0,
        0,
        0,
        0,
        0,
        0,
        0,
        0,
        0,
        0,
        0,
        0,
        0,
        0,
        0,
        0,
        0,
        0,
        0,
        0,
        0,
        0,
        0,
        0,
        0,
        0,
        0,
        0,
        0,
        0,
        0,
        0,
        0,
        2,
        2,
        2,
        0,
        0,
        0,
        0,
        0,
        0,
        0,
        0,
        0,
        0,
        0,
        0,
        0,
        2,
        2,
        2,
        0,
        0,
        0,
        0,
        0,
        0,
        0,
        0,
        0,
        0,
        0,
        0,
        0,
        2,
        2,
        2,
        0,
        0,
        0,
        0,
        0,
        0,
        0,
        0,
        0,
        0,
        0,
        0,
        0,
        0,
        0,
        0,
        0,
        0,
        0,
        0,
        0,
        0,
        0,
        0,
        0,
        0,
        0,
        0,
        0,
        0,
        0,
        0,
        0,
        0,
        0
      ]
    },
    {
      "id": 3,
      "name": "Walls",
      "type": "tilelayer",
      "x": 0,
      "y": 0,
      "width": 16,
      "height": 12,
      "opacity": 1,
      "visible": true,
      "data": [
        0,
        0,
        0,
        0,
        0,
        0,
        0,
        0,
        0,
        0,
        0,
        0,
        0,
        0,
        0,
        0,
        0,
        0,
        0,
        0,
        0,
        0,
        0,
        0,
        0,
        0,
        0,
        0,
        0,
        0,
        0,
        0,
        0,
        0,
        0,
        0,
        0,
        0,
        4,
        0,
        0,
        0,
        0,
        0,
        0,
        5,
        0,
        0,
        0,
        0,
        0,
        0,
        0,
        0,
        4,
        0,
        0,
        0,
        0,
        0,
        0,
        5,
        0,
        0,
        0,
        0,
        0,
        0,
        0,
        0,
        0,
        0,
        0,
        0,
        0,
        0,
        0,
        0,
        0,
        0,
        0,
        0,
        4,
        0,
        0,
        0,
        0,
        0,
        0,
        0,
        0,
        0,
        0,
        5,
        0,
        0,
        0,
        0,
        4,
        0,
        0,
        0,
        0,
        0,
        0,
        0,
        0,
        0,
        0,
        5,
        0,
        0,
        0,
        0,
        4,
        0,
        0,
        0,
        0,
        0,
        0,
        0,
        0,
        0,
        0,
        5,
        0,
        0,
        0,
        0,
        4,
        0,
        0,
        0,
        0,
        0,
        0,
        0,
        0,
        0,
        0,
        5,
        0,
        0,
        0,
        0,
        4,
        0,
        0,
        0,
        0,
        0,
        0,
        0,
        0,
        0,
        0,
        5,
        0,
        0,
        0,
        0,
        6,
        6,
        6,
        6,
        6,
        6,
        6,
        6,
        6,
        6,
        6,
        6,
        0,
        0,
        0,
        0,
        0,
        0,
        0,
        0,
        0,
        0,
        0,
        0,
        0,
        0,
        0,
        0,
        0,
        0
      ]
    },
    {
      "id": 4,
      "name": "WallTop",
      "type": "tilelayer",
      "x": 0,
      "y": 0,
      "width": 16,
      "height": 12,
      "opacity": 1,
      "visible": true,
      "data": [
        0,
        0,
        0,
        0,
        0,
        0,
        0,
        0,
        0,
        0,
        0,
        0,
        0,
        0,
        0,
        0,
        0,
        0,
        0,
        0,
        0,
        0,
        0,
        3,
        3,
        3,
        3,
        3,
        3,
        3,
        0,
        0,
        0,
        0,
        0,
        0,
        0,
        0,
        0,
        0,
        0,
        0,
        0,
        0,
        0,
        0,
        0,
        0,
        0,
        0,
        0,
        0,
        0,
        0,
        0,
        0,
        0,
        0,
        0,
        0,
        0,
        0,
        0,
        0,
        0,
        0,
        3,
        3,
        3,
        3,
        3,
        7,
        8,
        3,
        3,
        3,
        3,
        3,
        0,
        0,
        0,
        0,
        0,
        0,
        0,
        0,
        0,
        0,
        0,
        0,
        0,
        0,
        0,
        0,
        0,
        0,
        0,
        0,
        0,
        0,
        0,
        0,
        0,
        0,
        0,
        0,
        0,
        0,
        0,
        0,
        0,
        0,
        0,
        0,
        0,
        0,
        0,
        0,
        0,
        0,
        0,
        0,
        0,
        0,
        0,
        0,
        0,
        0,
        0,
        0,
        0,
        0,
        0,
        0,
        0,
        0,
        0,
        0,
        0,
        0,
        0,
        0,
        0,
        0,
        0,
        0,
        0,
        0,
        0,
        0,
        0,
        0,
        0,
        0,
        0,
        0,
        0,
        0,
        0,
        0,
        0,
        0,
        0,
        0,
        0,
        0,
        0,
        0,
        0,
        0,
        0,
        0,
        0,
        0,
        0,
        0,
        0,
        0,
        0,
        0,
        0,
        0,
        0,
        0,
        0,
        0,
        0,
        0,
        0,
        0,
        0,
        0
      ]
    },
    {
      "id": 5,
      "name": "StaticProps",
      "type": "tilelayer",
      "x": 0,
      "y": 0,
      "width": 16,
      "height": 12,
      "opacity": 1,
      "visible": true,
      "data": [
        0,
        0,
        0,
        0,
        0,
        0,
        0,
        0,
        0,
        0,
        0,
        0,
        0,
        0,
        0,
        0,
        0,
        0,
        0,
        0,
        0,
        0,
        0,
        0,
        0,
        0,
        0,
        0,
        0,
        0,
        0,
        0,
        0,
        0,
        0,
        0,
        0,
        0,
        0,
        0,
        0,
        0,
        0,
        0,
        0,
        0,
        0,
        0,
        0,
        0,
        0,
        0,
        0,
        0,
        0,
        0,
        0,
        0,
        0,
        0,
        0,
        0,
        0,
        0,
        0,
        0,
        0,
        0,
        0,
        0,
        0,
        0,
        0,
        0,
        0,
        0,
        0,
        0,
        0,
        0,
        0,
        0,
        0,
        0,
        0,
        0,
        0,
        0,
        0,
        0,
        0,
        0,
        0,
        0,
        0,
        0,
        0,
        0,
        0,
        0,
        0,
        0,
        0,
        0,
        0,
        0,
        0,
        0,
        0,
        0,
        0,
        0,
        0,
        0,
        0,
        0,
        0,
        0,
        0,
        0,
        0,
        0,
        0,
        0,
        0,
        0,
        0,
        0,
        0,
        0,
        0,
        0,
        0,
        0,
        0,
        0,
        0,
        0,
        0,
        0,
        0,
        0,
        0,
        0,
        0,
        0,
        0,
        0,
        0,
        0,
        0,
        0,
        0,
        0,
        0,
        0,
        0,
        0,
        0,
        0,
        0,
        0,
        0,
        0,
        0,
        0,
        0,
        0,
        0,
        0,
        0,
        0,
        0,
        0,
        0,
        0,
        0,
        0,
        0,
        0,
        0,
        0,
        0,
        0,
        0,
        0,
        0,
        0,
        0,
        0,
        0,
        0
      ]
    },
    {
      "id": 6,
      "name": "Collision",
      "type": "objectgroup",
      "x": 0,
      "y": 0,
      "opacity": 1,
      "visible": true,
      "draworder": "topdown",
      "objects": [
        {
          "id": 1,
          "name": "SHELL_NORTH_LEFT",
          "type": "",
          "x": 64,
          "y": 128,
          "width": 166,
          "height": 32,
          "rotation": 0,
          "visible": true,
          "properties": [
            {
              "name": "blocksRobot",
              "type": "bool",
              "value": true
            }
          ]
        },
        {
          "id": 2,
          "name": "SHELL_NORTH_RIGHT",
          "type": "",
          "x": 282,
          "y": 128,
          "width": 166,
          "height": 32,
          "rotation": 0,
          "visible": true,
          "properties": [
            {
              "name": "blocksRobot",
              "type": "bool",
              "value": true
            }
          ]
        },
        {
          "id": 3,
          "name": "SHELL_LEFT",
          "type": "",
          "x": 64,
          "y": 160,
          "width": 32,
          "height": 160,
          "rotation": 0,
          "visible": true,
          "properties": [
            {
              "name": "blocksRobot",
              "type": "bool",
              "value": true
            }
          ]
        },
        {
          "id": 4,
          "name": "SHELL_RIGHT",
          "type": "",
          "x": 416,
          "y": 160,
          "width": 32,
          "height": 160,
          "rotation": 0,
          "visible": true,
          "properties": [
            {
              "name": "blocksRobot",
              "type": "bool",
              "value": true
            }
          ]
        },
        {
          "id": 5,
          "name": "SHELL_SOUTH",
          "type": "",
          "x": 64,
          "y": 320,
          "width": 384,
          "height": 32,
          "rotation": 0,
          "visible": true,
          "properties": [
            {
              "name": "blocksRobot",
              "type": "bool",
              "value": true
            }
          ]
        },
        {
          "id": 6,
          "name": "CORRIDOR_NORTH",
          "type": "",
          "x": 224,
          "y": 32,
          "width": 224,
          "height": 32,
          "rotation": 0,
          "visible": true,
          "properties": [
            {
              "name": "blocksRobot",
              "type": "bool",
              "value": true
            }
          ]
        },
        {
          "id": 7,
          "name": "CORRIDOR_LEFT",
          "type": "",
          "x": 192,
          "y": 64,
          "width": 32,
          "height": 64,
          "rotation": 0,
          "visible": true,
          "properties": [
            {
              "name": "blocksRobot",
              "type": "bool",
              "value": true
            }
          ]
        },
        {
          "id": 8,
          "name": "CORRIDOR_RIGHT",
          "type": "",
          "x": 416,
          "y": 64,
          "width": 32,
          "height": 64,
          "rotation": 0,
          "visible": true,
          "properties": [
            {
              "name": "blocksRobot",
              "type": "bool",
              "value": true
            }
          ]
        }
      ]
    },
    {
      "id": 7,
      "name": "NavigationNodes",
      "type": "objectgroup",
      "x": 0,
      "y": 0,
      "opacity": 1,
      "visible": true,
      "draworder": "topdown",
      "objects": [
        {
          "id": 9,
          "name": "SHELL_ROOM",
          "type": "",
          "x": 256,
          "y": 240,
          "width": 0,
          "height": 0,
          "point": true,
          "rotation": 0,
          "visible": true,
          "properties": [
            {
              "name": "nodeId",
              "type": "string",
              "value": "SHELL_ROOM"
            }
          ]
        },
        {
          "id": 10,
          "name": "SHELL_DOOR_IN",
          "type": "",
          "x": 256,
          "y": 176,
          "width": 0,
          "height": 0,
          "point": true,
          "rotation": 0,
          "visible": true,
          "properties": [
            {
              "name": "nodeId",
              "type": "string",
              "value": "SHELL_DOOR_IN"
            }
          ]
        },
        {
          "id": 11,
          "name": "SHELL_DOOR_OUT",
          "type": "",
          "x": 256,
          "y": 112,
          "width": 0,
          "height": 0,
          "point": true,
          "rotation": 0,
          "visible": true,
          "properties": [
            {
              "name": "nodeId",
              "type": "string",
              "value": "SHELL_DOOR_OUT"
            }
          ]
        },
        {
          "id": 12,
          "name": "SHELL_CORRIDOR_END",
          "type": "",
          "x": 384,
          "y": 96,
          "width": 0,
          "height": 0,
          "point": true,
          "rotation": 0,
          "visible": true,
          "properties": [
            {
              "name": "nodeId",
              "type": "string",
              "value": "SHELL_CORRIDOR_END"
            }
          ]
        }
      ]
    },
    {
      "id": 8,
      "name": "NavigationEdges",
      "type": "objectgroup",
      "x": 0,
      "y": 0,
      "opacity": 1,
      "visible": true,
      "draworder": "topdown",
      "objects": [
        {
          "id": 13,
          "name": "SHELL_E1",
          "type": "",
          "x": 0,
          "y": 0,
          "width": 0,
          "height": 0,
          "rotation": 0,
          "visible": true,
          "polyline": [
            {
              "x": 256,
              "y": 240
            },
            {
              "x": 256,
              "y": 176
            }
          ],
          "properties": [
            {
              "name": "edgeId",
              "type": "string",
              "value": "SHELL_E1"
            }
          ]
        },
        {
          "id": 14,
          "name": "SHELL_E2",
          "type": "",
          "x": 0,
          "y": 0,
          "width": 0,
          "height": 0,
          "rotation": 0,
          "visible": true,
          "polyline": [
            {
              "x": 256,
              "y": 176
            },
            {
              "x": 256,
              "y": 112
            }
          ],
          "properties": [
            {
              "name": "edgeId",
              "type": "string",
              "value": "SHELL_E2"
            }
          ]
        },
        {
          "id": 15,
          "name": "SHELL_E3",
          "type": "",
          "x": 0,
          "y": 0,
          "width": 0,
          "height": 0,
          "rotation": 0,
          "visible": true,
          "polyline": [
            {
              "x": 256,
              "y": 112
            },
            {
              "x": 384,
              "y": 96
            }
          ],
          "properties": [
            {
              "name": "edgeId",
              "type": "string",
              "value": "SHELL_E3"
            }
          ]
        }
      ]
    },
    {
      "id": 9,
      "name": "EncounterZones",
      "type": "objectgroup",
      "x": 0,
      "y": 0,
      "opacity": 1,
      "visible": true,
      "draworder": "topdown",
      "objects": [
        {
          "id": 16,
          "name": "SHELL_TEST_ROOM",
          "type": "",
          "x": 96,
          "y": 160,
          "width": 320,
          "height": 160,
          "rotation": 0,
          "visible": true,
          "properties": [
            {
              "name": "prototypeOnly",
              "type": "bool",
              "value": true
            }
          ]
        }
      ]
    },
    {
      "id": 10,
      "name": "FloorTransitions",
      "type": "objectgroup",
      "x": 0,
      "y": 0,
      "opacity": 1,
      "visible": true,
      "draworder": "topdown",
      "objects": [
        {
          "id": 17,
          "name": "SHELL_TEST_EXIT",
          "type": "",
          "x": 384,
          "y": 80,
          "width": 32,
          "height": 32,
          "rotation": 0,
          "visible": true,
          "properties": [
            {
              "name": "prototypeOnly",
              "type": "bool",
              "value": true
            }
          ]
        }
      ]
    },
    {
      "id": 11,
      "name": "SpawnPoints",
      "type": "objectgroup",
      "x": 0,
      "y": 0,
      "opacity": 1,
      "visible": true,
      "draworder": "topdown",
      "objects": [
        {
          "id": 18,
          "name": "SHELL_TEST_SPAWN",
          "type": "",
          "x": 256,
          "y": 240,
          "width": 0,
          "height": 0,
          "point": true,
          "rotation": 0,
          "visible": true,
          "properties": [
            {
              "name": "prototypeOnly",
              "type": "bool",
              "value": true
            }
          ]
        }
      ]
    },
    {
      "id": 12,
      "name": "Debug",
      "type": "objectgroup",
      "x": 0,
      "y": 0,
      "opacity": 1,
      "visible": true,
      "draworder": "topdown",
      "objects": [
        {
          "id": 19,
          "name": "ROOM_SHELL_BOUNDS",
          "type": "",
          "x": 64,
          "y": 128,
          "width": 384,
          "height": 224,
          "rotation": 0,
          "visible": true,
          "properties": []
        },
        {
          "id": 20,
          "name": "DOOR_OPENING",
          "type": "",
          "x": 230,
          "y": 128,
          "width": 52,
          "height": 32,
          "rotation": 0,
          "visible": true,
          "properties": []
        }
      ]
    }
  ]
}
