{"type":"map","version":"1.10","tiledversion":"1.11.2","orientation":"orthogonal","renderorder":"right-down","infinite":false,"width":96,"height":56,"tilewidth":32,"tileheight":32,"nextlayerid":9,"nextobjectid":157,"layers":[{"id":1,"name":"Ground","type":"tilelayer","opacity":1,"visible":true,"x":0,"y":0,"width":96,"height":56,"data":[2,2,2,2,2,2,2,2,2,2,2,2,2,2,2,2,2,2,2,2,2,2,2,2,2,2,2,2,2,2,2,2,2,2,2,2,2,2,2,2,2,2,2,2,2,2,3,3,3,3,2,2,2,2,2,2,2,2,2,2,2,2,2,2,2,2,2,2,2,2,2,2,2,2,2,2,2,2,2,2,2,2,2,2,2,2,2,2,2,2,2,2,2,2,2,2,2,2,2,2,2,2,2,2,2,2,2,2,2,2,2,2,2,2,2,2,2,2,2,2,2,2,2,2,2,2,2,2,2,2,2,2,2,2,2,2,2,2,2,2,2,2,3,3,3,3,2,2,2,2,2,2,2,2,2,2,2,2,2,2,2,2,2,2,2,2,2,2,2,2,2,2,2,2,2,2,2,2,2,2,2,2,2,2,2,2,2,2,2,2,2,2,2,2,2,2,2,2,2,2,2,2,2,2,2,2,2,2,2,2,2,2,2,2,2,2,2,2,2,2,2,2,2,2,2,2,2,2,2,2,2,2,2,2,2,2,2,2,3,3,3,3,2,2,2,2,2,2,2,2,2,2,2,2,2,2,2,2,2,2,2,2,2,2,2,2,2,2,2,2,2,2,2,2,2,2,2,2,2,2,2,2,2,2,2,2,2,2,2,2,2,2,2,2,2,2,2,2,2,2,2,2,2,2,2,2,2,2,2,2,2,2,2,2,2,2,2,2,2,2,2,2,2,2,2,2,2,2,2,2,2,2,2,2,3,3,3,3,2,2,2,2,2,2,2,2,2,2,2,2,2,2,2,2,2,2,2,2,2,2,2,2,2,2,2,2,2,2,2,2,2,2,2,2,2,2,2,2,2,2,2,2,2,2,2,2,2,2,2,2,2,2,2,2,2,2,2,2,2,2,2,2,2,2,2,2,2,2,2,2,2,2,2,2,2,2,2,2,2,2,2,2,2,2,2,2,2,2,2,2,3,3,3,3,2,2,2,2,2,2,2,2,2,2,2,2,2,2,2,2,2,2,2,2,2,2,2,2,2,2,2,2,2,2,2,2,2,2,2,2,2,2,2,2,2,2,2,2,2,2,2,2,2,2,2,2,2,2,2,2,2,2,2,2,2,2,2,2,2,2,2,2,2,2,2,2,7,7,7,7,7,7,7,7,7,7,7,7,7,7,7,7,7,7,7,7,3,3,3,3,7,7,7,7,7,7,7,7,7,7,7,7,7,7,7,7,7,7,7,7,2,2,2,2,2,2,2,2,2,2,2,2,2,2,2,2,2,2,2,2,2,2,2,2,2,2,2,2,2,2,2,2,2,2,2,2,2,2,2,2,2,2,2,2,2,2,2,2,2,2,2,7,7,7,7,7,7,7,7,7,7,7,7,7,7,7,7,7,7,7,7,7,3,3,3,3,7,7,7,7,7,7,7,7,7,7,7,7,7,7,7,7,7,7,7,7,7,2,2,2,2,2,2,2,2,2,2,2,2,2,2,2,2,2,2,2,2,2,2,2,2,2,2,2,2,2,2,2,2,2,2,2,2,2,2,2,2,2,2,2,2,2,2,2,2,2,2,7,7,2,2,2,2,2,2,2,2,2,2,2,2,2,2,2,2,2,2,2,3,3,3,3,2,2,2,2,2,2,2,2,2,2,2,2,2,2,2,2,2,2,2,7,7,2,2,2,2,2,2,2,2,2,2,2,2,2,2,2,2,2,2,2,2,2,2,2,2,2,2,2,2,2,2,2,2,2,2,2,2,2,2,2,2,2,2,2,2,2,2,2,2,2,2,7,7,2,2,2,2,2,2,2,2,2,2,2,2,2,2,2,2,2,2,2,3,3,3,3,2,2,2,2,2,2,2,2,2,2,2,2,2,2,2,2,2,2,2,7,7,2,2,2,2,2,2,2,2,2,2,2,2,2,2,2,2,2,2,2,2,2,2,2,2,2,2,2,2,2,2,2,2,2,2,2,2,2,2,2,2,2,2,2,2,2,2,2,2,2,2,7,7,2,2,2,2,2,2,2,2,2,2,2,2,2,2,2,2,2,2,2,3,3,3,3,2,2,2,2,2,2,2,2,2,2,2,2,2,2,2,2,2,2,2,7,7,2,2,2,2,2,2,2,2,2,2,2,2,2,2,2,2,2,2,2,2,2,2,2,2,2,2,2,2,2,2,2,2,2,2,2,2,2,2,2,2,2,2,2,3,3,3,3,3,3,3,7,7,3,3,3,3,3,3,3,3,3,3,3,3,3,3,3,3,3,3,3,3,3,3,3,3,3,3,3,3,3,3,3,3,3,3,3,3,3,3,3,3,3,3,7,7,3,3,3,3,3,3,3,2,2,2,2,2,2,2,2,2,2,2,2,2,2,2,2,2,2,2,2,2,2,2,2,2,2,2,2,2,2,2,2,2,2,2,2,3,3,3,3,3,3,3,3,3,3,3,3,3,3,3,3,3,3,3,3,3,3,3,3,3,3,3,3,3,3,3,3,3,3,3,3,3,3,3,3,3,3,3,3,3,3,3,3,3,3,3,3,3,3,3,3,3,3,3,3,2,2,2,2,2,2,2,2,2,2,2,2,2,2,2,2,2,2,2,2,2,2,2,2,2,2,2,2,2,2,2,2,2,2,2,2,3,3,3,3,3,3,3,7,7,3,3,3,3,3,3,3,3,3,3,3,3,3,3,3,3,3,3,3,3,3,3,3,3,3,3,3,3,3,3,3,3,3,3,3,3,3,3,3,3,3,3,7,7,3,3,3,3,3,3,3,2,2,2,2,2,2,2,2,2,2,2,2,2,2,2,2,2,2,2,2,2,2,2,2,2,2,2,2,2,2,2,2,2,2,2,2,2,2,2,2,2,2,2,7,7,2,2,2,2,2,2,2,2,2,2,2,2,2,2,2,2,2,2,2,2,2,2,2,2,2,2,2,2,2,2,2,2,2,2,2,2,2,2,2,2,2,2,7,7,2,2,2,2,2,2,2,2,2,2,2,2,2,2,2,2,2,2,2,2,2,2,2,2,2,2,2,2,2,2,2,2,2,2,2,2,2,2,2,2,2,2,2,2,2,2,2,2,2,2,7,7,2,2,2,2,2,2,2,2,2,2,2,2,2,2,2,2,2,2,2,2,2,2,2,2,2,2,2,2,2,2,2,2,2,2,2,2,2,2,2,2,2,2,7,7,2,2,2,2,2,2,2,2,2,2,2,2,2,2,2,2,2,2,2,2,2,2,2,2,2,2,2,2,2,2,2,2,2,2,2,2,2,2,2,2,2,2,2,2,2,2,2,2,2,2,7,7,2,2,2,2,2,2,2,2,2,2,2,2,2,2,2,2,2,2,2,2,2,2,2,2,2,2,2,2,2,2,2,2,2,2,2,2,2,2,2,2,2,2,7,7,2,2,2,2,2,2,2,2,2,2,2,2,2,2,2,2,2,2,2,2,2,2,2,2,2,2,2,2,2,2,2,2,2,2,2,2,2,2,2,2,2,2,2,2,2,2,2,2,2,2,7,7,7,7,7,7,7,7,7,7,7,7,7,7,7,7,7,7,7,7,7,7,7,7,7,7,7,7,7,7,7,7,7,7,7,7,7,7,7,7,7,7,7,7,7,7,2,2,2,2,2,2,2,2,2,2,2,2,2,2,2,2,2,2,2,2,2,2,2,2,2,2,2,2,2,2,2,2,2,2,2,2,2,2,2,2,2,2,2,2,2,2,2,2,2,2,2,7,7,7,7,7,7,7,7,7,7,7,7,7,7,7,7,7,7,7,7,3,3,3,3,7,7,7,7,7,7,7,7,7,7,7,7,7,7,7,7,7,7,7,7,2,2,2,2,2,2,2,2,2,4,4,4,4,4,4,4,4,4,4,4,4,4,2,2,2,2,2,2,2,2,2,2,2,2,2,2,2,2,2,2,2,2,2,2,2,2,2,2,2,2,2,2,2,2,2,2,2,2,2,2,2,2,2,2,2,2,2,2,2,2,2,2,3,3,3,3,2,2,2,2,2,2,2,2,2,2,2,2,2,2,2,2,2,2,2,2,2,2,2,2,2,2,2,2,2,4,4,4,4,4,4,4,4,4,4,4,4,4,2,2,2,2,2,2,2,2,2,2,2,2,2,2,2,2,2,2,2,2,2,2,2,2,2,2,2,2,2,2,2,2,2,2,2,2,2,2,2,2,2,2,2,2,2,2,2,2,2,2,3,3,3,3,2,2,2,2,2,2,2,2,2,2,2,2,2,2,2,2,2,2,2,2,2,2,2,2,2,2,2,2,2,4,4,4,4,4,4,4,4,4,4,4,4,4,2,2,2,2,2,2,2,2,2,2,2,2,2,2,2,2,2,2,2,2,2,2,2,2,2,2,2,2,2,2,2,2,2,2,2,2,2,2,2,2,2,2,2,2,2,2,2,2,2,2,3,3,3,3,2,2,2,2,2,2,2,2,2,2,2,2,2,2,2,2,2,2,2,2,2,2,2,2,2,2,2,2,2,4,4,4,4,4,4,4,4,4,4,4,4,4,2,2,2,2,2,2,2,2,2,2,2,2,2,2,2,2,2,2,2,2,2,2,2,2,2,2,2,2,2,2,2,2,2,2,2,2,2,2,2,2,2,2,2,2,2,2,2,2,2,2,3,3,3,3,2,2,2,2,2,2,2,2,2,2,2,2,2,2,2,2,2,2,2,2,2,2,2,2,2,2,2,2,2,4,4,4,4,4,4,4,4,4,4,4,4,4,2,2,2,2,1,1,1,1,1,1,1,1,1,1,1,1,1,1,1,1,1,1,4,4,4,4,4,4,4,4,4,4,4,4,4,4,4,4,4,4,4,4,4,4,4,4,4,4,4,4,3,3,3,3,4,4,4,4,4,4,4,4,4,4,4,4,4,4,4,4,4,4,4,4,4,4,4,4,4,4,4,4,1,1,1,1,1,1,1,1,1,1,1,1,1,1,1,1,1,1,1,1,1,1,1,1,1,1,1,1,1,1,1,1,1,1,1,1,4,4,4,4,4,4,4,4,4,4,4,4,4,4,4,4,4,4,4,4,4,4,4,4,4,4,4,4,3,3,3,3,4,4,4,4,4,4,4,4,4,4,4,4,4,4,4,4,4,4,4,4,4,4,4,4,4,4,4,4,1,1,1,1,1,1,1,1,1,1,1,1,1,1,1,1,1,1,1,1,1,1,1,1,1,1,1,1,1,1,1,1,1,1,1,1,1,1,5,5,5,5,5,5,5,5,5,5,5,5,5,5,5,5,5,5,5,5,5,5,5,5,5,5,3,3,3,3,5,5,5,5,5,5,5,5,5,5,5,5,5,5,5,5,5,5,5,5,5,5,5,5,5,5,1,1,1,1,1,1,1,1,1,1,1,1,1,1,1,1,1,1,1,1,1,1,1,1,1,1,1,1,1,1,1,1,1,1,1,1,1,1,1,1,5,5,5,5,5,5,5,5,5,5,5,5,5,5,5,5,5,5,5,5,5,5,5,5,5,5,5,5,5,5,5,5,5,5,5,5,5,5,5,5,5,5,5,5,5,5,5,5,5,5,5,5,5,5,5,5,1,1,1,1,1,1,1,1,1,1,1,1,1,1,1,1,1,1,1,1,1,1,1,1,1,1,1,1,1,1,1,1,1,1,1,1,1,1,1,1,5,5,5,5,5,5,5,5,5,5,5,5,5,5,5,5,5,5,5,5,5,5,5,5,5,5,5,5,5,5,5,5,5,5,5,5,5,5,5,5,5,5,5,5,5,5,5,5,5,5,5,5,5,5,5,5,1,1,1,1,1,1,1,1,1,1,1,1,1,1,1,1,1,1,1,1,1,1,1,1,1,1,1,1,1,1,1,1,1,1,1,1,1,1,1,1,5,5,5,5,5,5,5,5,5,5,5,5,5,5,5,5,5,5,5,5,5,5,5,5,5,5,5,5,5,5,5,5,5,5,5,5,5,5,5,5,5,5,5,5,5,5,5,5,5,5,5,5,5,5,5,5,1,1,1,1,1,1,1,1,1,1,1,1,1,1,1,1,1,1,1,1,1,1,1,1,1,1,1,1,1,1,1,1,1,1,1,1,1,1,1,1,5,5,5,5,5,5,5,5,5,5,5,5,5,5,5,5,5,5,5,5,5,5,5,5,5,5,5,5,5,5,5,5,5,5,5,5,5,5,5,5,5,5,5,5,5,5,5,5,5,5,5,5,5,5,5,5,1,1,1,1,1,1,1,1,1,1,1,1,1,1,1,1,1,1,1,1,1,1,1,1,1,1,1,1,1,1,1,1,1,1,1,1,1,1,1,1,5,5,5,5,5,5,5,5,5,5,5,5,5,5,5,5,5,5,5,5,5,5,5,5,5,5,5,5,5,5,5,5,5,5,5,5,5,5,5,5,5,5,5,5,5,5,5,5,5,5,5,5,5,5,5,5,1,1,1,1,1,1,1,1,1,1,1,1,1,1,1,1,1,1,1,1,1,1,1,1,1,1,1,1,1,1,1,1,1,1,1,1,1,1,1,1,5,5,5,5,5,5,5,5,5,5,5,5,5,5,5,5,5,5,5,5,5,5,5,5,5,5,5,5,5,5,5,5,5,5,5,5,5,5,5,5,5,5,5,5,5,5,5,5,5,5,5,5,5,5,5,5,1,1,1,1,1,1,1,1,1,1,1,1,1,1,1,1,1,1,1,1,1,1,1,1,1,1,1,1,1,1,1,1,1,1,1,1,1,1,1,1,5,5,5,5,5,5,5,5,5,5,5,5,5,5,5,5,5,5,5,5,5,5,5,5,5,5,5,5,5,5,5,5,5,5,5,5,5,5,5,5,5,5,5,5,5,5,5,5,5,5,5,5,5,5,5,5,1,1,1,1,1,1,1,1,1,1,1,1,1,1,1,1,1,1,1,1,1,1,1,1,1,1,1,1,1,1,1,1,1,1,1,1,1,1,1,1,5,5,5,5,5,5,5,5,5,5,5,5,5,5,5,5,5,5,5,5,5,5,5,5,5,5,5,5,5,5,5,5,5,5,5,5,5,5,5,5,5,5,5,5,5,5,5,5,5,5,5,5,5,5,5,5,1,1,1,1,1,1,1,1,1,1,1,1,1,1,1,1,1,1,1,1,1,1,1,1,1,1,1,1,1,1,1,1,1,1,1,1,1,1,1,1,5,5,5,5,5,5,5,5,5,5,5,5,5,5,5,5,5,5,5,5,5,5,5,5,5,5,5,5,5,5,5,5,5,5,5,5,5,5,5,5,5,5,5,5,5,5,5,5,5,5,5,5,5,5,5,5,1,1,1,1,1,1,1,1,1,1,1,1,1,1,1,1,1,1,1,1,1,1,1,1,1,1,1,1,1,1,1,1,1,1,1,1,1,1,1,1,5,5,5,5,5,5,5,5,5,5,5,5,5,5,5,5,5,5,5,5,5,5,5,5,5,5,5,5,5,5,5,5,5,5,5,5,5,5,5,5,5,5,5,5,5,5,5,5,5,5,5,5,5,5,5,5,1,1,1,1,1,1,1,1,1,1,1,1,1,1,1,1,1,1,1,1,1,1,1,1,1,1,1,1,1,1,1,1,1,1,1,1,1,1,1,1,5,5,5,5,5,5,5,5,5,5,5,5,5,5,5,5,5,5,5,5,5,5,5,5,5,5,5,5,5,5,5,5,5,5,5,5,5,5,5,5,5,5,5,5,5,5,5,5,5,5,5,5,5,5,5,5,1,1,1,1,1,1,1,1,1,1,1,1,1,1,1,1,1,1,1,1,1,1,1,1,1,1,1,1,1,1,1,1,1,1,1,1,1,1,1,1,5,5,5,5,5,5,5,5,5,5,5,5,5,5,5,5,5,5,5,5,5,5,5,5,5,5,5,5,5,5,5,5,5,5,5,5,5,5,5,5,5,5,5,5,5,5,5,5,5,5,5,5,5,5,5,5,1,1,1,1,1,1,1,1,1,1,1,1,1,1,1,1,1,1,1,1,1,1,1,1,1,1,1,1,1,1,1,1,1,1,1,1,1,1,1,1,5,5,5,5,5,5,5,5,5,5,5,5,5,5,5,5,5,5,5,5,5,5,5,5,5,5,5,5,5,5,5,5,5,5,5,5,5,5,5,5,5,5,5,5,5,5,5,5,5,5,5,5,5,5,5,5,1,1,1,1,1,1,1,1,1,1,1,1,1,1,1,1,1,1,1,1,1,1,1,1,1,1,1,1,1,1,1,1,1,1,1,1,1,1,1,1,5,5,5,5,5,5,5,5,5,5,5,5,5,5,5,5,5,5,5,5,5,5,5,5,5,5,5,5,5,5,5,5,5,5,5,5,5,5,5,5,5,5,5,5,5,5,5,5,5,5,5,5,5,5,5,5,1,1,1,1,1,1,1,1,1,1,1,1,1,1,1,1,1,1,1,1,1,1,1,1,1,1,1,1,1,1,1,1,1,1,1,1,1,1,1,1,5,5,5,5,5,5,5,5,5,5,5,5,5,5,5,5,5,5,5,5,5,5,5,5,5,5,5,5,5,5,5,5,5,5,5,5,5,5,5,5,5,5,5,5,5,5,5,5,5,5,5,5,5,5,5,5,1,1,1,1,1,1,1,1,1,1,1,1,1,1,1,1,1,1,1,1,1,1,1,1,1,1,1,1,1,1,1,1,1,1,1,1,1,1,1,1,1,1,1,1,1,1,1,1,1,1,1,1,1,1,1,1,1,1,1,1,1,1,1,1,1,1,1,1,1,1,1,1,1,1,1,1,1,1,1,1,1,1,1,1,1,1,1,1,1,1,1,1,1,1,1,1,1,1,1,1,1,1,1,1,1,1,1,1,1,1,1,1,1,1,1,1,1,1,1,1,1,1,1,1,1,1,1,1,1,1,1,1,1,1,1,1,1,1,1,1,1,1,1,1,1,1,1,1,1,1,1,1,1,1,1,1,1,1,1,1,1,1,1,1,1,1,1,1,1,1,1,1,1,1,1,1,1,1,1,1,1,1,1,1,1,1,1,1,1,1,1,1,1,1,1,1,1,1,1,1,1,1,1,1,1,1,1,1,1,1,1,1,1,1,1,1,1,1,1,1,1,1,1,1,1,1,1,1,1,1,1,1,1,1,1,1,1,1,1,1,1,1,1,1,1,1,1,1,1,1,1,1,1,1,1,1,1,1,1,1,1,1,1,1,1,1,1,1,1,1,1,1,1,1,1,1,1,1,1,1,1,1,1,1,1,1,1,1,1,1,1,1,1,1,1,1,1,1,1,1,1,1,1,1,1,1,1,1,1,1,1,1,1,1,1,1,1,1,1,1,1,1,1,1,1,1,1,1,1,1,1,1,1,1,1,1,1,1,1,1,1,1,1,1,1,1,1,1,1,1,1,1,1,1,1,1,1,1,1,1,1,1,1,1,1,1,1,1,1,1,1,1,1,1,1,1,1,1,1,1,1,1,1,1,1,1,1,1,1,1,1,1,1,1,1,1,1,1,1,1,1,1,1,1,1,1,1,1,1,1,1,1,1,1,1,1,1,1,1,1,1,1,1,1,1,1,1,1,1,1,1,1,1,1,1,1,1,1,1,1,1,1,1,1,1,1,1,1,1,1,1,1,1,1,1,1,1,1,1,1,1,1,1,1,1,1,1,1,1,1,1,1,1,1,1,1,1,1,1,1,1,1,1,1,1,1,1,1,1,1,1,1,1,1,1,1,1,1,1,1,1,1,1,1,1,1,1,1,1,1,1,1,1,1,1,1,1,1,1,1,1,1,1,1,1,1,1,1,1,1,1,1,1,1,1,1,1,1,1,1,1,1,1,1,1,1,1,1,1,1,1,1,1,1,1,1,1,1,1,1,1,1,1,1,1,1,1,1,1,1,1,1,1,1,1,1,1,1,1,1,1,1,1,1,1,1,1,1,1,1,1,1,1,1,1,1,1,1,1,1,1,1,1,1,1,1,1,1,1,1,1,1,1,1,1,1,1,1,1,1,1,1,1,1,1,1,1,1,1,1,1,1,1,1,1,1,1,1,1,1,1,1,1,1,1,1,1,1,1,1,1,1,1,1,1,1,1,1,1,1,1,1,1,1,1,1,1,1,1,1,1,1,1,1,1,1,1,1,1,1,1,1,1,1,1,1,1,1,1,1,1,1,1,1,1,1,1,1,1,1,1,1,1,1,1,1,1,1,1,1,1,1,1,1,1,1,1,1,1,1,1,1,1,1,1,1,1,1,1,1,1,1,1,1,1,1,1,1,1,1,1,1,1,1,1,1,1,1,1,1,1,1,1,1,1,1,1,1,1,1,1,1,1,1,1,1,1,1,1,1,1,1,1,1,1,1,1,1,1,1,1,1,1,1,1,1,1,1,1,1,1,1,1,1,1,1,1,1,1,1,1,1,1,1,1,1,1,1,1,1,1,1,1,1,1,1,1,1,1,1,1,1,1,1,1,1,1,1,1,1,1,1,1,1,1,1,1,1,1,1,1,1,1,1,1,1,1,1,1,1,1,1,1,1,1,1,1,1,1,1,1,1,1,1,1,1,1,1,1,1,1,1,1,1,1,1,1,1,1,1,1,1,1,1,1,1,1,1,1,1,1,1,1,1,1,1,1,1,1,1,1,1,1,1,1,1,1,1,1,1,1,1,1,1,1,1,1,1,1,1,1,1,1,1,1,1,1,1,1,1,1,1,1,1,1,1,1,1,1,1,1,1,1,1,1,1,1,1,1,1,1,1,1,1,1,1,1,1,1,1,1,1,1,1,1,1,1,1,1,1,1,1,1,1,1,1,1,1,1,1,6,6,6,6,6,6,6,6,6,6,6,6,6,6,6,6,6,6,6,6,6,6,6,6,6,6,6,6,6,6,6,6,6,6,6,6,6,6,6,6,6,6,6,6,6,6,6,6,6,6,6,6,6,6,6,6,6,6,6,6,6,6,6,6,6,6,6,6,6,6,6,6,6,6,6,6,6,6,6,6,6,6,6,6,6,6,6,6,6,6,6,6,6,6,6,6,6,6,6,6,6,6,6,6,6,6,6,6,6,6,6,6,6,6,6,6,6,6,6,6,6,6,6,6,6,6,6,6,6,6,6,6,6,6,6,6,6,6,6,6,6,6,6,6,6,6,6,6,6,6,6,6,6,6,6,6,6,6,6,6,6,6,6,6,6,6,6,6,6,6,6,6,6,6,6,6,6,6,6,6,6,6,6,6,6,6,6,6,6,6,6,6,6,6,6,6,6,6,6,6,6,6,6,6,6,6,6,6,6,6,6,6,6,6,6,6,6,6,6,6,6,6,6,6,6,6,6,6,6,6,6,6,6,6,6,6,6,6,6,6,6,6,6,6,6,6,6,6,6,6,6,6,6,6,6,6,6,6,6,6,6,6,6,6,6,6,6,6,6,6,6,6,6,6,6,6,6,6,6,6,6,6,6,6,6,6,6,6,6,6,6,6,6,6,6,6,6,6,6,6,6,6,6,6,6,6,6,6,6,6,6,6,6,6,6,6,6,6,6,6,6,6,6,6,6,6,6,6,6,6,6,6,6,6,6,6,6,6,6,6,6,6,6,6,6,6,6,6,6,6,6,6,6,6,6,6,6,6,6,6,6,6,6,6,6,6,6,6,6,6,6,6,6,6,6,6,6,6,6,6,6,6,6,6,6,6,6,6,6,6,6,6,6,6,6,6,6,6,6,6,6,6,6,6,6,6,6,6,6,6,6,6,6,6,6,6,6,6,6,6,6,6,6,6,6,6,6,6,6,6,6,6,6,6,6,6,6,6,6,6,6,6,6,6,6,6,6,6,6,6,6,6,6,6,6,6,6,6,6,6,6,6,6,6,6,6,6,6,6,6,6,6,6,6,6,6,6,6,6,6,6,6,6,6,6,6,6,6,6,6,6,6,6,6,6,6,6,6,6,6,6,6,6,6,6,6,6,6,6,6,6,6,6,6,6,6,6,6,6,6,6,6,6,6,6,6,6,6,6,6,6,6,6,6,6,6,6,6,6,6,6,6,6,6,6,6,6,6,6,6,6,6,6,6,6,6,6,6,6,6,6,6,6,6,6,6,6,6,6,6,6,6,6,6,6,6]},{"id":2,"name":"Ground_Detail","type":"tilelayer","opacity":1,"visible":true,"x":0,"y":0,"width":96,"height":56,"data":[0,0,0,0,0,0,0,0,0,0,0,0,0,0,0,0,0,0,0,0,0,0,0,0,0,0,0,0,0,0,0,0,0,0,0,0,0,0,0,0,0,0,0,0,0,0,0,0,0,0,0,0,0,0,0,0,0,0,0,0,0,0,0,0,0,0,0,0,0,0,0,0,0,0,0,0,0,0,0,0,0,0,0,0,0,0,0,0,0,0,0,0,0,0,0,0,0,0,0,0,0,0,0,0,0,0,0,0,0,0,0,0,0,0,0,0,0,0,0,0,0,0,0,0,0,0,0,0,0,0,0,0,0,0,0,0,0,0,0,0,0,0,0,0,0,0,0,0,0,0,0,0,0,0,0,0,0,0,0,0,0,0,0,0,0,0,0,0,0,0,0,0,0,0,0,0,0,0,0,0,0,0,0,0,0,0,0,0,0,0,0,0,0,0,0,0,0,0,0,0,0,0,0,0,0,0,0,0,0,0,0,0,0,0,0,0,0,0,0,0,0,0,0,0,0,0,0,0,0,0,0,0,0,0,0,0,0,0,0,0,0,0,0,0,0,0,0,0,0,0,0,0,0,0,0,0,0,0,0,0,0,0,0,0,0,0,0,0,0,0,0,0,0,0,0,0,0,0,0,0,0,0,0,0,0,0,0,0,0,0,0,0,0,0,0,0,0,0,0,0,0,0,0,0,0,0,0,0,8,8,8,0,0,0,0,0,0,0,0,0,0,0,0,0,0,0,0,0,0,0,0,0,0,0,0,0,0,0,0,0,0,0,0,0,0,0,0,0,0,0,0,0,0,0,0,0,0,0,0,0,0,0,0,0,0,0,0,0,0,0,0,0,0,0,0,0,0,0,0,0,0,0,0,0,0,0,0,0,0,0,0,0,0,0,0,0,0,0,0,0,0,0,0,0,8,8,8,0,0,0,0,0,0,0,0,0,0,0,0,0,0,0,0,0,0,0,0,0,0,0,0,0,0,0,0,0,0,0,0,0,0,0,0,0,0,0,0,0,0,0,0,0,0,0,0,0,0,0,0,0,0,0,0,0,0,0,0,0,0,0,0,0,0,0,0,0,0,0,0,0,0,0,0,0,0,0,0,0,0,0,0,0,0,0,0,0,0,0,0,0,0,0,0,0,0,0,0,0,0,0,0,0,0,0,0,0,0,0,0,0,0,0,0,0,0,0,0,0,0,0,0,0,0,0,0,0,0,0,0,0,0,0,0,0,0,0,0,0,0,0,0,0,0,0,0,0,0,0,0,0,0,0,0,0,0,0,0,0,0,0,0,0,0,0,0,0,0,0,0,0,0,0,0,0,0,0,0,0,0,0,0,0,0,0,0,0,0,0,0,0,0,0,0,0,0,0,0,0,0,0,0,0,0,0,0,0,0,0,0,0,0,0,0,0,0,0,0,0,0,0,0,0,0,0,0,0,0,0,0,0,0,0,0,0,0,0,0,0,0,0,0,0,0,0,0,0,0,0,0,0,0,0,0,0,0,0,0,0,0,0,0,0,0,0,0,0,0,0,0,0,0,0,0,0,0,0,0,0,0,0,0,0,0,0,0,0,0,0,0,0,0,0,0,0,0,0,0,0,0,0,0,0,0,0,0,0,0,0,0,0,0,0,0,0,0,0,0,0,0,0,0,0,0,0,0,0,0,0,0,0,0,0,0,0,0,0,0,0,0,0,0,0,0,0,0,0,0,0,0,0,0,0,0,0,0,0,0,0,0,0,0,0,0,0,0,0,0,0,0,0,0,0,0,0,0,0,0,0,0,0,0,0,0,0,0,0,0,0,0,0,0,0,0,0,0,0,0,0,0,0,0,0,0,0,0,0,0,0,0,0,0,0,0,0,0,0,0,0,0,0,0,0,0,0,0,0,0,0,0,0,0,0,0,0,0,0,0,0,0,0,0,0,0,0,0,0,0,0,0,0,0,0,0,0,0,0,0,0,0,0,0,0,0,0,0,0,0,0,0,0,0,0,0,0,0,0,0,0,0,0,0,0,0,0,0,0,0,0,0,0,0,0,0,0,0,0,0,0,0,0,0,0,0,0,0,0,0,0,0,0,0,0,0,0,0,0,0,0,0,0,0,0,0,0,0,0,0,0,0,0,0,0,0,0,0,0,0,0,0,0,0,0,0,0,0,0,0,0,0,0,0,0,0,0,0,0,0,0,0,0,0,0,0,0,0,0,0,0,0,0,0,0,0,0,0,0,0,0,0,0,0,0,0,0,0,0,0,0,0,0,0,0,0,0,0,0,0,0,0,0,0,0,0,0,0,0,0,0,0,0,0,0,0,0,0,0,0,0,0,0,0,0,0,0,0,0,0,0,0,0,0,0,0,0,0,0,0,0,0,0,0,0,0,0,0,0,0,0,0,0,0,0,0,0,0,0,0,0,0,0,0,0,0,0,0,0,0,0,0,0,0,0,0,0,0,0,0,0,0,0,0,0,0,0,0,0,0,0,0,0,0,0,0,0,0,0,0,0,0,0,0,0,0,0,0,0,0,0,0,0,0,0,0,0,0,0,0,0,0,0,0,0,0,0,0,0,0,0,0,0,0,0,0,0,0,0,0,0,0,0,0,0,0,0,0,0,0,0,0,0,0,0,0,0,0,0,0,0,0,0,0,0,0,0,0,0,0,0,0,0,0,0,0,0,0,0,0,0,0,0,0,0,0,0,0,0,0,0,0,0,0,0,0,0,0,0,0,0,0,0,0,0,0,0,0,0,0,0,0,0,0,0,0,0,0,0,0,0,0,0,0,0,0,0,0,0,0,0,0,0,0,0,0,0,0,0,0,0,0,0,0,0,0,0,0,0,0,0,0,0,0,0,0,0,0,0,0,0,0,0,0,0,0,0,0,0,0,0,0,0,0,0,0,0,0,0,0,0,0,0,0,0,0,0,0,0,0,0,0,0,0,0,0,0,0,0,0,0,0,0,0,0,0,0,0,0,0,0,0,0,0,0,0,0,0,0,0,0,0,0,0,0,0,0,0,0,0,0,0,0,0,0,0,0,0,0,0,0,0,0,0,0,0,0,0,0,0,0,0,0,0,0,0,0,0,0,0,0,0,0,0,0,0,0,0,0,0,0,0,0,0,0,0,0,0,0,0,0,0,0,0,0,0,0,0,0,0,0,0,0,0,0,0,0,0,0,0,0,0,0,0,0,0,0,0,0,0,0,0,0,0,0,0,0,0,0,0,0,0,0,0,0,0,0,0,0,0,0,0,0,0,0,0,0,0,0,0,0,0,0,0,0,0,0,0,0,0,0,0,0,0,0,0,0,0,0,0,0,0,0,0,0,0,0,0,0,0,0,0,0,0,0,0,0,0,0,0,0,0,0,0,0,0,0,0,0,0,0,0,0,0,0,0,0,0,0,0,0,0,0,0,0,0,0,0,0,0,0,0,0,0,0,0,0,0,0,0,0,0,0,0,0,0,0,0,0,0,0,0,0,0,0,0,0,0,0,0,0,0,0,0,0,0,0,0,0,0,0,0,0,0,0,0,0,0,0,0,0,0,0,0,0,0,0,0,0,0,0,0,0,0,0,0,0,0,0,0,0,0,0,0,0,0,0,0,0,0,0,0,0,0,0,0,0,0,0,0,0,0,0,0,0,0,0,0,0,0,0,0,0,0,0,0,0,0,0,0,0,0,0,0,0,0,0,0,0,0,0,0,0,0,0,0,0,0,0,0,0,0,0,0,0,0,0,0,0,0,0,0,0,0,0,0,0,0,0,0,0,0,0,0,0,0,0,0,0,0,0,0,0,0,0,0,0,0,0,0,0,0,0,0,0,0,0,0,0,0,0,0,0,0,0,0,0,0,0,0,0,0,0,0,0,0,0,0,0,0,0,0,0,0,0,0,0,0,0,0,0,0,0,0,0,0,0,0,0,0,0,0,0,0,0,0,0,0,0,0,0,0,0,0,0,0,0,0,0,0,0,0,0,0,0,0,0,0,0,0,0,0,0,0,0,0,0,0,0,0,0,0,0,0,0,0,0,0,0,0,0,0,0,0,0,0,0,0,0,0,0,0,0,0,0,0,0,0,0,0,0,0,0,0,0,0,0,0,0,0,0,0,0,0,0,0,0,0,0,0,0,0,0,0,0,0,0,0,0,0,0,0,0,0,0,0,0,0,0,0,0,0,0,0,0,0,0,0,0,0,0,0,0,0,0,0,0,0,0,0,0,0,0,0,0,0,0,0,0,0,0,0,0,0,0,0,0,0,0,0,0,0,0,0,0,0,0,0,0,0,0,0,0,0,0,0,0,0,0,0,0,0,0,0,0,0,0,0,0,0,0,0,0,0,0,0,0,0,0,0,0,0,0,0,0,0,0,0,0,0,0,0,0,0,0,0,0,0,0,0,0,0,0,0,0,0,0,0,0,0,0,0,0,0,0,0,0,0,0,0,0,0,0,0,0,0,0,8,8,8,0,0,0,0,0,0,0,0,0,0,0,0,0,0,0,0,0,0,0,0,0,0,0,0,0,0,0,0,0,0,0,0,0,0,0,0,0,0,0,0,0,0,0,0,0,0,0,0,0,0,0,0,0,0,0,0,0,0,0,0,0,0,0,0,0,0,0,0,0,0,0,0,0,0,0,0,0,0,0,0,0,0,0,0,0,0,0,0,0,0,0,0,0,8,8,8,0,0,0,0,0,0,0,0,0,0,0,0,0,0,0,0,0,0,0,0,0,0,0,0,0,0,0,0,0,0,0,0,0,0,0,0,0,0,0,0,0,0,0,0,0,0,0,0,0,0,0,0,0,0,0,0,0,0,0,0,0,0,0,0,0,0,0,0,0,0,0,0,0,0,0,0,0,0,0,0,0,0,0,0,0,0,0,0,0,0,0,0,0,0,0,0,0,0,0,0,0,0,0,0,0,0,0,0,0,0,0,0,0,0,0,0,0,0,0,0,0,0,0,0,0,0,0,0,0,0,0,0,0,0,0,0,0,0,0,0,0,0,0,0,0,0,0,0,0,0,0,0,0,0,0,0,0,0,0,0,0,0,0,0,0,0,0,0,0,0,0,0,0,0,0,0,0,0,0,0,0,0,0,0,0,0,0,0,0,0,0,0,0,0,0,0,0,0,0,0,0,0,0,0,0,0,0,0,0,0,0,0,0,0,0,0,0,0,0,0,0,0,0,0,0,0,0,0,0,0,0,0,0,0,0,0,0,0,0,0,0,0,0,0,0,0,0,0,0,0,0,0,0,0,0,0,0,0,0,0,0,0,0,0,0,0,0,0,0,0,0,0,0,0,0,0,0,0,0,0,0,0,0,0,0,0,0,0,0,0,0,0,0,0,0,0,0,0,0,0,0,0,0,0,0,0,0,0,0,0,0,0,0,0,0,0,0,0,0,0,0,0,0,0,0,0,0,0,0,0,0,0,0,0,0,0,0,0,0,0,0,0,0,0,0,0,0,0,0,0,0,0,0,0,0,0,0,0,0,0,0,0,0,0,0,0,0,0,0,0,0,0,0,0,0,0,0,0,0,0,0,0,0,0,0,0,0,0,0,0,0,0,0,0,0,0,0,0,0,0,0,0,0,0,0,0,0,0,0,0,0,0,0,0,0,0,0,0,0,0,0,0,0,0,0,0,0,0,0,0,0,0,0,0,0,0,0,0,0,0,0,0,0,0,0,0,0,0,0,0,0,0,0,0,0,0,0,0,0,0,0,0,0,0,0,0,0,0,0,0,0,0,0,0,0,0,0,0,0,0,0,0,0,0,0,0,0,0,0,0,0,0,0,0,0,0,0,0,0,0,0,0,0,0,0,0,0,0,0,0,0,0,0,0,0,0,0,0,0,0,0,0,0,0,0,0,0,0,0,0,0,0,0,0,0,0,0,0,0,0,0,0,0,0,0,0,0,0,0,0,0,0,0,0,0,0,0,0,0,0,0,0,0,0,0,0,0,0,0,0,0,0,0,0,0,0,0,0,0,0,0,0,0,0,0,0,0,0,0,0,0,0,0,0,0,0,0,0,0,0,0,0,0,0,0,0,0,0,0,0,0,0,0,0,0,0,0,0,0,0,0,0,0,0,0,0,0,0,0,0,0,0,0,0,0,0,0,0,0,0,0,0,0,0,0,0,0,0,0,0,0,0,0,0,0,0,0,0,0,0,0,0,0,0,0,0,0,0,0,0,0,0,0,0,0,0,0,0,0,0,0,0,0,0,0,0,0,0,0,0,0,0,0,0,0,0,0,0,0,0,0,0,0,0,0,0,0,0,0,0,0,0,0,0,0,0,0,0,0,0,0,0,0,0,0,0,0,0,0,0,0,0,0,0,0,0,0,0,0,0,0,0,0,0,0,0,0,0,0,0,0,0,0,0,0,0,0,0,0,0,0,0,0,0,0,0,0,0,0,0,0,0,0,0,0,0,0,0,0,0,0,0,0,0,0,0,0,0,0,0,0,0,0,0,0,0,0,0,0,0,0,0,0,0,0,0,0,0,0,0,0,0,0,0,0,0,0,0,0,0,0,0,0,0,0,0,0,0,0,0,0,0,0,0,0,0,0,0,0,0,0,0,0,0,0,0,0,0,0,0,0,0,0,0,0,0,0,0,0,0,0,0,0,0,0,0,0,0,0,0,0,0,0,0,0,0,0,0,0,0,0,0,0,0,0,0,0,0,0,0,0,0,0,0,0,0,0,0,0,0,0,0,0,0,0,0,0,0,0,0,0,0,0,0,0,0,0,0,0,0,0,0,0,0,0,0,0,0,0,0,0,0,0,0,0,0,0,0,0,0,0,0,0,0,0,0,0,0,0,0,0,0,0,0,0,0,0,0,0,0,0,0,0,0,0,0,0,0,0,0,0,0,0,0,0,0,0,0,0,0,0,0,0,0,0,0,0,0,0,0,0,0,0,0,0,0,0,0,0,0,0,0,0,0,0,0,0,0,0,0,0,0,0,0,0,0,0,0,0,0,0,0,0,0,0,0,0,0,0,0,0,0,0,0,0,0,0,0,0,0,0,0,0,0,0,0,0,0,0,0,0,0,0,0,0,0,0,0,0,0,0,0,0,0,0,0,0,0,0,0,0,0,0,0,0,0,0,0,0,0,0,0,0,0,0,0,0,0,0,0,0,0,0,0,0,0,0,0,0,0,0,0,0,0,0,0,0,0,0,0,0,0,0,0,0,0,0,0,0,0,0,0,0,0,0,0,0,0,0,0,0,0,0,0,0,0,0,0,0,0,0,0,0,0,0,0,0,0,0,0,0,0,0,0,0,0,0,0,0,0,0,0,0,0,0,0,0,0,0,0,0,0,0,0,0,0,0,0,0,0,0,0,0,0,0,0,0,0,0,0,0,0,0,0,0,0,0,0,0,0,0,0,0,0,0,0,0,0,0,0,0,0,0,0,0,0,0,0,0,0,0,0,0,0,0,0,0,0,0,0,0,0,0,0,0,0,0,0,0,0,0,0,0,0,0,0,0,0,0,0,0,0,0,0,0,0,0,0,0,0,0,0,0,0,0,0,0,0,0,0,0,0,0,0,0,0,0,0,0,0,0,0,0,0,0,0,0,0,0,0,0,0,0,0,0,0,0,0,0,0,0,0,0,0,0,0,0,0,0,0,0,0,0,0,0,0,0,0,0,0,0,0,0,0,0,0,0,0,0,0,0,0,0,0,0,0,0,0,0,0,0,0,0,0,0,0,0,0,0,0,0,0,0,0,0,0,0,0,0,0,0,0,0,0,0,0,0,0,0,0,0,0,0,0,0,0,0,0,0,0,0,0,0,0,0,0,0,0,0,0,0,0,0,0,0,0,0,0,0,0,0,0,0,0,0,0,0,0,0,0,0,0,0,0,0,0,0,0,0,0,0,0,0,0,0,0,0,0,0,0,0,0,0,0,0,0,0,0,0,0,0,0,0,0,0,0,0,0,0,0,0,0,0,0,0,0,0,0,0,0,0,0,0,0,0,0,0,0,0,0,0,0,0,0,0,0,0,0,0,0,0,0,0,0,0,0,0,0,0,0,0,0,0,0,0,0,0,0,0,0,0,0,0,0,0,0,0,0,0,0,0,0,0,0,0,0,0,0,0,0,0,0,0,0,0,0,0,0,0,0,0,0,0,0,0,0,0,0,0,0,0,0,0,0,0,0,0,0,0,0,0,0,0,0,0,0,0,0,0,0,0,0,0,0,0,0,0,0,0,0,0,0,0,0,0,0,0,0,0,0,0,0,0,0,0,0,0,0,0,0,0,0,0,0,0,0,0,0,0,0,0,0,0,0,0,0,0,0,0,0,0,0,0,0,0,0,0,0,0,0,0,0,0,0,0,0,0,0,0,0,0,0,0,0,0,0,0,0,0,0,0,0,0,0,0,0,0,0,0,0,0,0,0,0,0,0,0,0,0,0,0,0,0,0,0,0,0,0,0,0,0,0,0,0,0,0,0,0,0,0,0,0,0,0,0,0,0,0,0,0,0,0,0,0,0,0,0,0,0,0,0,0,0,0,0,0,0,0,0,0,0,0,0,0,0,0,0,0,0,0,0,0,0,0,0,0,0,0,0,0,0,0,0,0,0,0,0,0,0,0,0,0,0,0,0,0,0,0,0,0,0,0,0,0,0,0,0,0,0,0,0,0,0,0,0,0,0,0,0,0,0,0,0,0,0,0,0,0,0,0,0,0,0,0,0,0,0,0,0,0,0,0,0,0,0,0,0,0,0,0,0,0,0,0,0,0,0,0,0,0,0,0,0,0,0,0,0,0,0,0,0,0,0,0,0,0,0,0,0,0,0,0,0,0,0,0,0,0,0,0,0,0,0,0,0,0,0,0,0,0,0,0,0,0,0,0,0,0,0,0,0,0,0,0,0,0,0,0,0,0,0,0,0,0,0,0,0,0,0,0,0,0,0,0,0,0,0,0,0,0,0,0,0,0,0,0,0,0,0,0,0,0,0,0,0,0,0,0,0,0,0,0,0,0,0,0,0,0,0,0,0,0,0,0,0,0,0,0,0,0,0,0,0,0,0,0,0,0,0,0,0,0,0,0,0,0,0,0,0,0,0,0,0,0,0,0,0,0,0,0,0,0,0,0,0,0,0,0,0,0,0,0,0,0,0,0,0,0,0,0,0,0,0,0,0,0,0,0,0,0,0,0,0,0,0,0,0,0,0,0,0,0,0,0,0,0,0,0,0,0,0,0,0,0,0,0,0,0,0,0,0,0,0,0,0,0,0,0,0,0,0,0,0,0,0,0,0,0,0,0,0,0,0,0,0,0,0,0,0,0,0,0,0,0,0,0,0,0,0,0,0,0,0,0,0,0,0,0,0,0,0,0,0,0,0,0,0,0,0,0,0,0,0,0,0,0,0,0,0,0,0,0,0,0,0,0,0,0,0,0,0,0,0,0,0,0,0,0,0,0,0,0,0,0,0,0,0,0,0,0,0,0,0,0,0,0,0,0,0,0,0,0,0,0,0,0,0,0,0,0,0,0,0,0,0,0,0,0,0,0,0,0,0,0,0,0,0,0,0,0,0,0,0,0,0,0,0,0,0,0,0,0,0,0,0,0,0,0,0,0,0,0,0,0,0,0,0,0,0,0,0,0,0,0,0,0,0,0,0,0,0,0,0,0,0,0,0,0,0,0,0,0,0,0,0,0,0,0,0,0,0,0,0,0,0,0,0,0,0,0,0,0,0,0,0,0,0,0,0,0,0,0,0,0,0,0,0,0,0,0,0,0,0,0,0,0,0,0,0,0,0,0,0,0,0,0,0,0,0,0,0,0,0,0,0,0,0,0,0,0,0,0,0,0,0,0,0,0,0,0,0,0,0,0,0,0,0,0,0,0,0,0,0,0,0,0,0,0,0,0,0,0,0,0,0,0,0,0,0,0,0,0,0,0,0,0,0,0,0,0,0,0,0,0,0,0,0,0,0,0,0,0,0,0,0,0,0,0,0,0,0,0,0,0,0,0,0,0,0,0,0,0,0,0,0,0,0,0,0,0,0,0,0,0,0,0,0,0,0,0,0,0,0,0,0,0,0,0,0,0,0,0,0,0,0,0,0,0,0,0,0,0,0,0,0,0,0,0,0,0,0,0,0,0,0,0,0,0,0,0,0,0,0,0,0,0,0,0,0,0,0,0,0,0,0,0,0,0,0,0,0,0,0,0,0,0,0,0,0,0,0,0,0,0,0,0,0,0,0,0,0,0,0,0,0,0,0,0,0,0,0,0,0,0,0,0,0,0,0,0,0,0,0,0,0,0,0,0,0,0,0,0,0,0,0,0,0,0,0,0,0,0,0,0,0,0,0,0,0,0,0,0,0,0,0,0,0,0,0,0,0,0,0,0,0,0,0,0,0,0,0,0,0,0,0,0,0,0,0,0,0,0,0,0,0,0,0,0,0,0,0,0,0,0,0,0,0,0,0,0,0,0,0,0,0,0,0,0,0,0,0,0,0,0,0,0,0,0,0,0,0,0,0,0,0,0,0,0,0,0,0,0,0,0,0,0,0,0,0,0,0,0,0,0,0,0,0,0,0,0,0,0,0,0,0,0,0,0,0,0,0,0,0,0,0,0,0,0,0,0,0,0,0,0,0,0,0,0,0,0,0,0,0,0,0,0,0,0,0,0,0,0,0,0,0,0,0,0,0,0,0,0,0,0,0,0,0,0,0,0,0,0,0,0,0,0,0,0,0,0,0,0,0,0,0,0,0,0,0,0,0,0,0,0,0,0,0,0,0,0,0,0,0,0,0,0,0,0,0,0,0,0,0,0,0,0,0,0,0,0,0,0,0,0,0,0,0,0,0,0,0,0,0,0,0,0,0,0,0,0,0,0,0,0,0,0,0,0,0,0,0,0,0,0,0,0,0,0,0,0,0,0,0,0,0,0,0,0,0,0,0,0,0,0,0,0,0,0,0,0,0,0,0,0,0,0,0,0,0,0,0,0,0,0,0,0,0,0,0,0,0,0,0,0,0,0,0,0,0,0,0,0,0,0,0,0,0,0,0,0,0,0,0,0,0,0,0,0,0,0,0,0,0,0,0,0,0,0,0,0,0,0,0,0,0,0,0,0,0,0,0,0,0,0,0,0,0,0,0,0,0,0,0,0,0,0,0,0,0,0,0,0,0,0,0,0,0,0,0,0,0,0,0,0,0,0,0,0,0,0,0,0,0,0,0,0,0,0,0,0,0,0,0,0,0,0,0,0,0,0,0,0,0,0,0,0,0,0,0,0,0,0,0,0,0,0,0,0,0,0,0,0,0,0,0,0,0,0,0,0,0,0,0,0,0,0,0,0,0,0,0,0,0,0,0,0,0,0,0,0,0,0,0,0,0,0,0,0,0,0,0,0,0,0,0,0,0,0,0,0,0,0,0,0,0,0,0,0,0,0,0,0,0,0,0,0,0,0,0,0,0,0,0,0,0,0,0,0,0,0,0,0,0,0,0,0,0,0,0,0,0,0,0,0,0,0,0,0,0,0,0,0,0,0,0,0,0,0,0,0,0,0,0,0,0,0,0,0,0,0,0,0,0,0,0,0,0,0,0,0,0,0,0,0,0,0,0,0,0,0,0,0,0,0,0,0,0,0,0,0,0,0,0,0,0,0,0,0,0,0,0,0,0,0,0,0,0,0,0,0,0,0,0,0,0,0,0,0,0,0,0,0,0,0,0,0,0,0,0,0,0,0,0,0,0,0,0,0,0,0,0,0,0,0,0,0,0,0,0,0,0,0,0,0,0,0,0,0,0,0,0,0,0,0,0,0,0,0,0,0,0,0,0,0,0,0,0,0,0,0,0,0,0,0,0,0,0,0,0,0,0,0,0,0,0,0,0,0,0,0,0,0,0,0,0,0,0,0,0,0,0,0,0,0,0,0,0,0,0,0,0,0,0,0,0,0,0,0,0,0,0,0,0,0,0,0,0,0,0,0,0,0,0,0,0,0,0,0,0,0,0,0,0,0,0,0,0,0,0,0,0,0,0,0,0,0,0,0,0,0,0,0,0,0,0,0,0,0,0,0,0,0,0,0,0,0,0,0,0,0,0,0,0,0,0,0,0,0,0,0,0,0,0,0,0,0,0,0,0,0,0,0,0]},{"id":3,"name":"Object_Base","type":"objectgroup","opacity":1,"visible":true,"x":0,"y":0,"draworder":"topdown","objects":[{"id":21,"name":"T1","type":"Tree","x":320,"y":128,"width":32,"height":32,"rotation":0,"visible":true,"properties":[]},{"id":24,"name":"T2","type":"Tree","x":2656,"y":128,"width":32,"height":32,"rotation":0,"visible":true,"properties":[]},{"id":27,"name":"T3","type":"Tree","x":384,"y":576,"width":32,"height":32,"rotation":0,"visible":true,"properties":[]},{"id":30,"name":"T4","type":"Tree","x":2976,"y":576,"width":32,"height":32,"rotation":0,"visible":true,"properties":[]},{"id":33,"name":"T5","type":"Tree","x":1152,"y":256,"width":32,"height":32,"rotation":0,"visible":true,"properties":[]},{"id":36,"name":"T6","type":"Tree","x":1888,"y":480,"width":32,"height":32,"rotation":0,"visible":true,"properties":[]},{"id":39,"name":"B1","type":"Bush","x":512,"y":192,"width":32,"height":32,"rotation":0,"visible":true,"properties":[]},{"id":41,"name":"B2","type":"Bush","x":1056,"y":256,"width":32,"height":32,"rotation":0,"visible":true,"properties":[]},{"id":43,"name":"B3","type":"Bush","x":1984,"y":256,"width":32,"height":32,"rotation":0,"visible":true,"properties":[]},{"id":45,"name":"B4","type":"Bush","x":2528,"y":192,"width":32,"height":32,"rotation":0,"visible":true,"properties":[]},{"id":47,"name":"B5","type":"Bush","x":1216,"y":480,"width":32,"height":32,"rotation":0,"visible":true,"properties":[]},{"id":49,"name":"B6","type":"Bush","x":1824,"y":480,"width":32,"height":32,"rotation":0,"visible":true,"properties":[]},{"id":51,"name":"B7","type":"Bush","x":608,"y":544,"width":32,"height":32,"rotation":0,"visible":true,"properties":[]},{"id":53,"name":"B8","type":"Bush","x":2432,"y":544,"width":32,"height":32,"rotation":0,"visible":true,"properties":[]},{"id":55,"name":"L1","type":"Lamp","x":384,"y":256,"width":32,"height":32,"rotation":0,"visible":true,"properties":[]},{"id":58,"name":"L2","type":"Lamp","x":1696,"y":256,"width":32,"height":32,"rotation":0,"visible":true,"properties":[]},{"id":61,"name":"L3","type":"Lamp","x":2368,"y":256,"width":32,"height":32,"rotation":0,"visible":true,"properties":[]},{"id":64,"name":"L4","type":"Lamp","x":480,"y":480,"width":32,"height":32,"rotation":0,"visible":true,"properties":[]},{"id":67,"name":"L5","type":"Lamp","x":1600,"y":480,"width":32,"height":32,"rotation":0,"visible":true,"properties":[]},{"id":70,"name":"L6","type":"Lamp","x":2368,"y":480,"width":32,"height":32,"rotation":0,"visible":true,"properties":[]},{"id":73,"name":"PL1","type":"Lamp","x":896,"y":800,"width":32,"height":32,"rotation":0,"visible":true,"properties":[]},{"id":76,"name":"PL2","type":"Lamp","x":2144,"y":800,"width":32,"height":32,"rotation":0,"visible":true,"properties":[]},{"id":79,"name":"PL3","type":"Lamp","x":896,"y":1216,"width":32,"height":32,"rotation":0,"visible":true,"properties":[]},{"id":82,"name":"PL4","type":"Lamp","x":2144,"y":1216,"width":32,"height":32,"rotation":0,"visible":true,"properties":[]},{"id":85,"name":"Bench A","type":"Bench","x":256,"y":320,"width":96,"height":32,"rotation":0,"visible":true,"properties":[]},{"id":88,"name":"Bench B","type":"Bench","x":2752,"y":608,"width":96,"height":32,"rotation":0,"visible":true,"properties":[]},{"id":91,"name":"Bench C","type":"Bench","x":1216,"y":608,"width":96,"height":32,"rotation":0,"visible":true,"properties":[]},{"id":94,"name":"PB1","type":"Bench","x":768,"y":832,"width":96,"height":32,"rotation":0,"visible":true,"properties":[]},{"id":97,"name":"PB2","type":"Bench","x":2208,"y":832,"width":96,"height":32,"rotation":0,"visible":true,"properties":[]},{"id":100,"name":"PB3","type":"Bench","x":768,"y":1184,"width":96,"height":32,"rotation":0,"visible":true,"properties":[]},{"id":103,"name":"PB4","type":"Bench","x":2208,"y":1184,"width":96,"height":32,"rotation":0,"visible":true,"properties":[]},{"id":106,"name":"Fence NW","type":"Fence","x":192,"y":288,"width":224,"height":32,"rotation":0,"visible":true,"properties":[]},{"id":108,"name":"Fence NE","type":"Fence","x":2272,"y":288,"width":192,"height":32,"rotation":0,"visible":true,"properties":[]},{"id":110,"name":"Fence SW","type":"Fence","x":192,"y":416,"width":224,"height":32,"rotation":0,"visible":true,"properties":[]},{"id":112,"name":"Fence SE","type":"Fence","x":2272,"y":416,"width":192,"height":32,"rotation":0,"visible":true,"properties":[]},{"id":114,"name":"Manhole","type":"Manhole","x":2304,"y":544,"width":64,"height":64,"rotation":0,"visible":true,"properties":[]},{"id":116,"name":"Cafe","type":"Building","x":224,"y":1184,"width":416,"height":256,"rotation":0,"visible":true,"properties":[]},{"id":117,"name":"Public Facility","type":"Building","x":2528,"y":256,"width":416,"height":288,"rotation":0,"visible":true,"properties":[]},{"id":124,"name":"Cafe Opening","type":"DoorOpening","x":608,"y":1280,"width":32,"height":64,"rotation":0,"visible":true,"properties":[]},{"id":126,"name":"Facility Opening","type":"DoorOpening","x":2688,"y":512,"width":64,"height":32,"rotation":0,"visible":true,"properties":[]}]},{"id":4,"name":"Foreground","type":"objectgroup","opacity":1,"visible":true,"x":0,"y":0,"draworder":"topdown","objects":[{"id":23,"name":"T1 canopy","type":"Canopy","x":288,"y":32,"width":96,"height":128,"rotation":0,"visible":true,"properties":[{"name":"footY","type":"float","value":144}]},{"id":26,"name":"T2 canopy","type":"Canopy","x":2624,"y":32,"width":96,"height":128,"rotation":0,"visible":true,"properties":[{"name":"footY","type":"float","value":144}]},{"id":29,"name":"T3 canopy","type":"Canopy","x":352,"y":480,"width":96,"height":128,"rotation":0,"visible":true,"properties":[{"name":"footY","type":"float","value":592}]},{"id":32,"name":"T4 canopy","type":"Canopy","x":2944,"y":480,"width":96,"height":128,"rotation":0,"visible":true,"properties":[{"name":"footY","type":"float","value":592}]},{"id":35,"name":"T5 canopy","type":"Canopy","x":1120,"y":160,"width":96,"height":128,"rotation":0,"visible":true,"properties":[{"name":"footY","type":"float","value":272}]},{"id":38,"name":"T6 canopy","type":"Canopy","x":1856,"y":384,"width":96,"height":128,"rotation":0,"visible":true,"properties":[{"name":"footY","type":"float","value":496}]},{"id":57,"name":"L1 top","type":"LampTop","x":384,"y":192,"width":32,"height":96,"rotation":0,"visible":true,"properties":[{"name":"footY","type":"float","value":272}]},{"id":60,"name":"L2 top","type":"LampTop","x":1696,"y":192,"width":32,"height":96,"rotation":0,"visible":true,"properties":[{"name":"footY","type":"float","value":272}]},{"id":63,"name":"L3 top","type":"LampTop","x":2368,"y":192,"width":32,"height":96,"rotation":0,"visible":true,"properties":[{"name":"footY","type":"float","value":272}]},{"id":66,"name":"L4 top","type":"LampTop","x":480,"y":416,"width":32,"height":96,"rotation":0,"visible":true,"properties":[{"name":"footY","type":"float","value":496}]},{"id":69,"name":"L5 top","type":"LampTop","x":1600,"y":416,"width":32,"height":96,"rotation":0,"visible":true,"properties":[{"name":"footY","type":"float","value":496}]},{"id":72,"name":"L6 top","type":"LampTop","x":2368,"y":416,"width":32,"height":96,"rotation":0,"visible":true,"properties":[{"name":"footY","type":"float","value":496}]},{"id":75,"name":"PL1 top","type":"LampTop","x":896,"y":736,"width":32,"height":96,"rotation":0,"visible":true,"properties":[{"name":"footY","type":"float","value":816}]},{"id":78,"name":"PL2 top","type":"LampTop","x":2144,"y":736,"width":32,"height":96,"rotation":0,"visible":true,"properties":[{"name":"footY","type":"float","value":816}]},{"id":81,"name":"PL3 top","type":"LampTop","x":896,"y":1152,"width":32,"height":96,"rotation":0,"visible":true,"properties":[{"name":"footY","type":"float","value":1232}]},{"id":84,"name":"PL4 top","type":"LampTop","x":2144,"y":1152,"width":32,"height":96,"rotation":0,"visible":true,"properties":[{"name":"footY","type":"float","value":1232}]}]},{"id":5,"name":"Collision","type":"objectgroup","opacity":1,"visible":true,"x":0,"y":0,"draworder":"topdown","objects":[{"id":22,"name":"T1","type":"Tree","x":320,"y":128,"width":32,"height":32,"rotation":0,"visible":true,"properties":[]},{"id":25,"name":"T2","type":"Tree","x":2656,"y":128,"width":32,"height":32,"rotation":0,"visible":true,"properties":[]},{"id":28,"name":"T3","type":"Tree","x":384,"y":576,"width":32,"height":32,"rotation":0,"visible":true,"properties":[]},{"id":31,"name":"T4","type":"Tree","x":2976,"y":576,"width":32,"height":32,"rotation":0,"visible":true,"properties":[]},{"id":34,"name":"T5","type":"Tree","x":1152,"y":256,"width":32,"height":32,"rotation":0,"visible":true,"properties":[]},{"id":37,"name":"T6","type":"Tree","x":1888,"y":480,"width":32,"height":32,"rotation":0,"visible":true,"properties":[]},{"id":40,"name":"B1","type":"Bush","x":512,"y":192,"width":32,"height":32,"rotation":0,"visible":true,"properties":[]},{"id":42,"name":"B2","type":"Bush","x":1056,"y":256,"width":32,"height":32,"rotation":0,"visible":true,"properties":[]},{"id":44,"name":"B3","type":"Bush","x":1984,"y":256,"width":32,"height":32,"rotation":0,"visible":true,"properties":[]},{"id":46,"name":"B4","type":"Bush","x":2528,"y":192,"width":32,"height":32,"rotation":0,"visible":true,"properties":[]},{"id":48,"name":"B5","type":"Bush","x":1216,"y":480,"width":32,"height":32,"rotation":0,"visible":true,"properties":[]},{"id":50,"name":"B6","type":"Bush","x":1824,"y":480,"width":32,"height":32,"rotation":0,"visible":true,"properties":[]},{"id":52,"name":"B7","type":"Bush","x":608,"y":544,"width":32,"height":32,"rotation":0,"visible":true,"properties":[]},{"id":54,"name":"B8","type":"Bush","x":2432,"y":544,"width":32,"height":32,"rotation":0,"visible":true,"properties":[]},{"id":56,"name":"L1","type":"Lamp","x":384,"y":256,"width":32,"height":32,"rotation":0,"visible":true,"properties":[]},{"id":59,"name":"L2","type":"Lamp","x":1696,"y":256,"width":32,"height":32,"rotation":0,"visible":true,"properties":[]},{"id":62,"name":"L3","type":"Lamp","x":2368,"y":256,"width":32,"height":32,"rotation":0,"visible":true,"properties":[]},{"id":65,"name":"L4","type":"Lamp","x":480,"y":480,"width":32,"height":32,"rotation":0,"visible":true,"properties":[]},{"id":68,"name":"L5","type":"Lamp","x":1600,"y":480,"width":32,"height":32,"rotation":0,"visible":true,"properties":[]},{"id":71,"name":"L6","type":"Lamp","x":2368,"y":480,"width":32,"height":32,"rotation":0,"visible":true,"properties":[]},{"id":74,"name":"PL1","type":"Lamp","x":896,"y":800,"width":32,"height":32,"rotation":0,"visible":true,"properties":[]},{"id":77,"name":"PL2","type":"Lamp","x":2144,"y":800,"width":32,"height":32,"rotation":0,"visible":true,"properties":[]},{"id":80,"name":"PL3","type":"Lamp","x":896,"y":1216,"width":32,"height":32,"rotation":0,"visible":true,"properties":[]},{"id":83,"name":"PL4","type":"Lamp","x":2144,"y":1216,"width":32,"height":32,"rotation":0,"visible":true,"properties":[]},{"id":86,"name":"Bench A","type":"Bench","x":256,"y":320,"width":96,"height":32,"rotation":0,"visible":true,"properties":[]},{"id":89,"name":"Bench B","type":"Bench","x":2752,"y":608,"width":96,"height":32,"rotation":0,"visible":true,"properties":[]},{"id":92,"name":"Bench C","type":"Bench","x":1216,"y":608,"width":96,"height":32,"rotation":0,"visible":true,"properties":[]},{"id":95,"name":"PB1","type":"Bench","x":768,"y":832,"width":96,"height":32,"rotation":0,"visible":true,"properties":[]},{"id":98,"name":"PB2","type":"Bench","x":2208,"y":832,"width":96,"height":32,"rotation":0,"visible":true,"properties":[]},{"id":101,"name":"PB3","type":"Bench","x":768,"y":1184,"width":96,"height":32,"rotation":0,"visible":true,"properties":[]},{"id":104,"name":"PB4","type":"Bench","x":2208,"y":1184,"width":96,"height":32,"rotation":0,"visible":true,"properties":[]},{"id":107,"name":"Fence NW","type":"Fence","x":192,"y":288,"width":224,"height":32,"rotation":0,"visible":true,"properties":[]},{"id":109,"name":"Fence NE","type":"Fence","x":2272,"y":288,"width":192,"height":32,"rotation":0,"visible":true,"properties":[]},{"id":111,"name":"Fence SW","type":"Fence","x":192,"y":416,"width":224,"height":32,"rotation":0,"visible":true,"properties":[]},{"id":113,"name":"Fence SE","type":"Fence","x":2272,"y":416,"width":192,"height":32,"rotation":0,"visible":true,"properties":[]},{"id":118,"name":"Cafe interior","type":"Building","x":224,"y":1184,"width":384,"height":256,"rotation":0,"visible":true,"properties":[]},{"id":119,"name":"Cafe east upper","type":"Building","x":608,"y":1184,"width":32,"height":96,"rotation":0,"visible":true,"properties":[]},{"id":120,"name":"Cafe east lower","type":"Building","x":608,"y":1344,"width":32,"height":96,"rotation":0,"visible":true,"properties":[]},{"id":121,"name":"Facility interior","type":"Building","x":2528,"y":256,"width":416,"height":256,"rotation":0,"visible":true,"properties":[]},{"id":122,"name":"Facility south west","type":"Building","x":2528,"y":512,"width":160,"height":32,"rotation":0,"visible":true,"properties":[]},{"id":123,"name":"Facility south east","type":"Building","x":2752,"y":512,"width":192,"height":32,"rotation":0,"visible":true,"properties":[]}]},{"id":6,"name":"Navigation","type":"objectgroup","opacity":1,"visible":true,"x":0,"y":0,"draworder":"topdown","objects":[{"id":1,"name":"Park","type":"Zone","x":0,"y":0,"width":3072,"height":704,"rotation":0,"visible":true,"properties":[]},{"id":2,"name":"Cafe Zone","type":"Zone","x":192,"y":1120,"width":576,"height":384,"rotation":0,"visible":true,"properties":[]},{"id":3,"name":"Public Facility Zone","type":"Zone","x":2368,"y":224,"width":608,"height":480,"rotation":0,"visible":true,"properties":[]},{"id":4,"name":"Transition","type":"Zone","x":576,"y":704,"width":1920,"height":64,"rotation":0,"visible":true,"properties":[]},{"id":5,"name":"Central Plaza","type":"Zone","x":640,"y":768,"width":1792,"height":512,"rotation":0,"visible":true,"properties":[]},{"id":6,"name":"Open Core","type":"Zone","x":992,"y":896,"width":1088,"height":256,"rotation":0,"visible":true,"properties":[]},{"id":7,"name":"Facility Forecourt","type":"Zone","x":2528,"y":544,"width":416,"height":160,"rotation":0,"visible":true,"properties":[]},{"id":8,"name":"Park Main Walkway","type":"Path","x":576,"y":320,"width":1920,"height":96,"rotation":0,"visible":true,"properties":[{"name":"kind","type":"string","value":"Standard"},{"name":"tiles","type":"float","value":3}]},{"id":9,"name":"Upper Narrow Path","type":"Path","x":832,"y":160,"width":1408,"height":64,"rotation":0,"visible":true,"properties":[{"name":"kind","type":"string","value":"Special"},{"name":"tiles","type":"float","value":2}]},{"id":10,"name":"Lower Narrow Path","type":"Path","x":832,"y":512,"width":1408,"height":64,"rotation":0,"visible":true,"properties":[{"name":"kind","type":"string","value":"Special"},{"name":"tiles","type":"float","value":2}]},{"id":11,"name":"Upper Left Connector","type":"Path","x":800,"y":192,"width":64,"height":160,"rotation":0,"visible":true,"properties":[{"name":"kind","type":"string","value":"Special"},{"name":"tiles","type":"float","value":2}]},{"id":12,"name":"Upper Right Connector","type":"Path","x":2208,"y":192,"width":64,"height":160,"rotation":0,"visible":true,"properties":[{"name":"kind","type":"string","value":"Special"},{"name":"tiles","type":"float","value":2}]},{"id":13,"name":"Lower Left Connector","type":"Path","x":800,"y":384,"width":64,"height":160,"rotation":0,"visible":true,"properties":[{"name":"kind","type":"string","value":"Special"},{"name":"tiles","type":"float","value":2}]},{"id":14,"name":"Lower Right Connector","type":"Path","x":2208,"y":384,"width":64,"height":160,"rotation":0,"visible":true,"properties":[{"name":"kind","type":"string","value":"Special"},{"name":"tiles","type":"float","value":2}]},{"id":15,"name":"North Entry Connector","type":"Path","x":1472,"y":0,"width":128,"height":352,"rotation":0,"visible":true,"properties":[{"name":"kind","type":"string","value":"Connector"},{"name":"tiles","type":"float","value":4}]},{"id":16,"name":"Park South Connector","type":"Path","x":1472,"y":544,"width":128,"height":256,"rotation":0,"visible":true,"properties":[{"name":"kind","type":"string","value":"Connector"},{"name":"tiles","type":"float","value":4}]},{"id":17,"name":"Main Route","type":"Path","x":0,"y":1600,"width":3072,"height":192,"rotation":0,"visible":true,"properties":[{"name":"kind","type":"string","value":"Main"},{"name":"tiles","type":"float","value":6}]},{"id":18,"name":"North Entry","type":"Path","x":1472,"y":0,"width":128,"height":64,"rotation":0,"visible":true,"properties":[{"name":"kind","type":"string","value":"Entry"},{"name":"tiles","type":"float","value":4}]},{"id":19,"name":"West Exit","type":"Path","x":0,"y":1664,"width":64,"height":64,"rotation":0,"visible":true,"properties":[{"name":"kind","type":"string","value":"Exit"},{"name":"tiles","type":"float","value":2}]},{"id":20,"name":"East Exit","type":"Path","x":3008,"y":1664,"width":64,"height":64,"rotation":0,"visible":true,"properties":[{"name":"kind","type":"string","value":"Exit"},{"name":"tiles","type":"float","value":2}]},{"id":125,"name":"Cafe Opening","type":"DoorOpening","x":608,"y":1280,"width":32,"height":64,"rotation":0,"visible":true,"properties":[]},{"id":127,"name":"Facility Opening","type":"DoorOpening","x":2688,"y":512,"width":64,"height":32,"rotation":0,"visible":true,"properties":[]},{"id":130,"name":"Cafe Approach","type":"Approach","x":640,"y":1280,"width":96,"height":64,"rotation":0,"visible":true,"properties":[]},{"id":131,"name":"Facility Approach","type":"Approach","x":2688,"y":544,"width":64,"height":64,"rotation":0,"visible":true,"properties":[]},{"id":132,"name":"W01","type":"Waypoint","x":1520,"y":80,"width":0,"height":0,"rotation":0,"visible":true,"properties":[{"name":"label","type":"string","value":"NORTH_ENTRY"},{"name":"tileX","type":"float","value":47},{"name":"tileY","type":"float","value":2}],"point":true},{"id":133,"name":"W02","type":"Waypoint","x":848,"y":176,"width":0,"height":0,"rotation":0,"visible":true,"properties":[{"name":"label","type":"string","value":"PARK_NW"},{"name":"tileX","type":"float","value":26},{"name":"tileY","type":"float","value":5}],"point":true},{"id":134,"name":"W03","type":"Waypoint","x":976,"y":368,"width":0,"height":0,"rotation":0,"visible":true,"properties":[{"name":"label","type":"string","value":"PARK_MAIN_WEST"},{"name":"tileX","type":"float","value":30},{"name":"tileY","type":"float","value":11}],"point":true},{"id":135,"name":"W04","type":"Waypoint","x":368,"y":336,"width":0,"height":0,"rotation":0,"visible":true,"properties":[{"name":"label","type":"string","value":"PARK_BENCH_A"},{"name":"tileX","type":"float","value":11},{"name":"tileY","type":"float","value":10}],"point":true},{"id":136,"name":"W05","type":"Waypoint","x":1552,"y":368,"width":0,"height":0,"rotation":0,"visible":true,"properties":[{"name":"label","type":"string","value":"PARK_CENTER"},{"name":"tileX","type":"float","value":48},{"name":"tileY","type":"float","value":11}],"point":true},{"id":137,"name":"W06","type":"Waypoint","x":2736,"y":624,"width":0,"height":0,"rotation":0,"visible":true,"properties":[{"name":"label","type":"string","value":"PARK_BENCH_B"},{"name":"tileX","type":"float","value":85},{"name":"tileY","type":"float","value":19}],"point":true},{"id":138,"name":"W07","type":"Waypoint","x":2320,"y":368,"width":0,"height":0,"rotation":0,"visible":true,"properties":[{"name":"label","type":"string","value":"PARK_MAIN_EAST"},{"name":"tileX","type":"float","value":72},{"name":"tileY","type":"float","value":11}],"point":true},{"id":139,"name":"W08","type":"Waypoint","x":1552,"y":176,"width":0,"height":0,"rotation":0,"visible":true,"properties":[{"name":"label","type":"string","value":"UPPER_NARROW_MID"},{"name":"tileX","type":"float","value":48},{"name":"tileY","type":"float","value":5}],"point":true},{"id":140,"name":"W09","type":"Waypoint","x":1552,"y":528,"width":0,"height":0,"rotation":0,"visible":true,"properties":[{"name":"label","type":"string","value":"LOWER_NARROW_MID"},{"name":"tileX","type":"float","value":48},{"name":"tileY","type":"float","value":16}],"point":true},{"id":141,"name":"W10","type":"Waypoint","x":1328,"y":624,"width":0,"height":0,"rotation":0,"visible":true,"properties":[{"name":"label","type":"string","value":"PARK_BENCH_C"},{"name":"tileX","type":"float","value":41},{"name":"tileY","type":"float","value":19}],"point":true},{"id":142,"name":"W11","type":"Waypoint","x":2288,"y":592,"width":0,"height":0,"rotation":0,"visible":true,"properties":[{"name":"label","type":"string","value":"MANHOLE"},{"name":"tileX","type":"float","value":71},{"name":"tileY","type":"float","value":18}],"point":true},{"id":143,"name":"W12","type":"Waypoint","x":1552,"y":720,"width":0,"height":0,"rotation":0,"visible":true,"properties":[{"name":"label","type":"string","value":"PARK_SOUTH_GATE"},{"name":"tileX","type":"float","value":48},{"name":"tileY","type":"float","value":22}],"point":true},{"id":144,"name":"W13","type":"Waypoint","x":784,"y":1008,"width":0,"height":0,"rotation":0,"visible":true,"properties":[{"name":"label","type":"string","value":"PLAZA_WEST"},{"name":"tileX","type":"float","value":24},{"name":"tileY","type":"float","value":31}],"point":true},{"id":145,"name":"W14","type":"Waypoint","x":1552,"y":1008,"width":0,"height":0,"rotation":0,"visible":true,"properties":[{"name":"label","type":"string","value":"PLAZA_CENTER"},{"name":"tileX","type":"float","value":48},{"name":"tileY","type":"float","value":31}],"point":true},{"id":146,"name":"W15","type":"Waypoint","x":2288,"y":1008,"width":0,"height":0,"rotation":0,"visible":true,"properties":[{"name":"label","type":"string","value":"PLAZA_EAST"},{"name":"tileX","type":"float","value":71},{"name":"tileY","type":"float","value":31}],"point":true},{"id":147,"name":"W16","type":"Waypoint","x":720,"y":1296,"width":0,"height":0,"rotation":0,"visible":true,"properties":[{"name":"label","type":"string","value":"CAFE_FRONT"},{"name":"tileX","type":"float","value":22},{"name":"tileY","type":"float","value":40}],"point":true},{"id":148,"name":"W17","type":"Waypoint","x":656,"y":1296,"width":0,"height":0,"rotation":0,"visible":true,"properties":[{"name":"label","type":"string","value":"CAFE_DOOR"},{"name":"tileX","type":"float","value":20},{"name":"tileY","type":"float","value":40}],"point":true},{"id":149,"name":"W18","type":"Waypoint","x":2704,"y":592,"width":0,"height":0,"rotation":0,"visible":true,"properties":[{"name":"label","type":"string","value":"FACILITY_FRONT"},{"name":"tileX","type":"float","value":84},{"name":"tileY","type":"float","value":18}],"point":true},{"id":150,"name":"W19","type":"Waypoint","x":2704,"y":528,"width":0,"height":0,"rotation":0,"visible":true,"properties":[{"name":"label","type":"string","value":"FACILITY_DOOR"},{"name":"tileX","type":"float","value":84},{"name":"tileY","type":"float","value":16}],"point":true},{"id":151,"name":"W20","type":"Waypoint","x":1552,"y":1680,"width":0,"height":0,"rotation":0,"visible":true,"properties":[{"name":"label","type":"string","value":"MAIN_ROAD_CENTER"},{"name":"tileX","type":"float","value":48},{"name":"tileY","type":"float","value":52}],"point":true},{"id":152,"name":"W21","type":"Waypoint","x":48,"y":1680,"width":0,"height":0,"rotation":0,"visible":true,"properties":[{"name":"label","type":"string","value":"WEST_EXIT"},{"name":"tileX","type":"float","value":1},{"name":"tileY","type":"float","value":52}],"point":true},{"id":153,"name":"W22","type":"Waypoint","x":3024,"y":1680,"width":0,"height":0,"rotation":0,"visible":true,"properties":[{"name":"label","type":"string","value":"EAST_EXIT"},{"name":"tileX","type":"float","value":94},{"name":"tileY","type":"float","value":52}],"point":true}]},{"id":7,"name":"Interaction","type":"objectgroup","opacity":1,"visible":true,"x":0,"y":0,"draworder":"topdown","objects":[{"id":87,"name":"Bench A","type":"Bench","x":256,"y":320,"width":96,"height":32,"rotation":0,"visible":true,"properties":[]},{"id":90,"name":"Bench B","type":"Bench","x":2752,"y":608,"width":96,"height":32,"rotation":0,"visible":true,"properties":[]},{"id":93,"name":"Bench C","type":"Bench","x":1216,"y":608,"width":96,"height":32,"rotation":0,"visible":true,"properties":[]},{"id":96,"name":"PB1","type":"Bench","x":768,"y":832,"width":96,"height":32,"rotation":0,"visible":true,"properties":[]},{"id":99,"name":"PB2","type":"Bench","x":2208,"y":832,"width":96,"height":32,"rotation":0,"visible":true,"properties":[]},{"id":102,"name":"PB3","type":"Bench","x":768,"y":1184,"width":96,"height":32,"rotation":0,"visible":true,"properties":[]},{"id":105,"name":"PB4","type":"Bench","x":2208,"y":1184,"width":96,"height":32,"rotation":0,"visible":true,"properties":[]},{"id":115,"name":"Manhole","type":"Manhole","x":2304,"y":544,"width":64,"height":64,"rotation":0,"visible":true,"properties":[]},{"id":128,"name":"Cafe Trigger","type":"DoorTrigger","x":608,"y":1280,"width":64,"height":64,"rotation":0,"visible":true,"properties":[]},{"id":129,"name":"Facility Trigger","type":"DoorTrigger","x":2688,"y":512,"width":64,"height":64,"rotation":0,"visible":true,"properties":[]}]},{"id":8,"name":"Camera_Zone","type":"objectgroup","opacity":1,"visible":true,"x":0,"y":0,"draworder":"topdown","objects":[{"id":154,"name":"CCTV1","type":"Coverage","x":0,"y":0,"width":1696,"height":992,"rotation":0,"visible":true,"properties":[]},{"id":155,"name":"CCTV2","type":"Coverage","x":576,"y":512,"width":2496,"height":1280,"rotation":0,"visible":true,"properties":[]},{"id":156,"name":"Overlap","type":"Overlap","x":576,"y":512,"width":1120,"height":480,"rotation":0,"visible":true,"properties":[]}]}],"tilesets":[{"firstgid":1,"name":"graybox","tilewidth":32,"tileheight":32,"tilecount":8,"columns":8,"margin":0,"spacing":0,"image":"graybox.svg","imagewidth":256,"imageheight":32}]}